src/test/resources/17p_cmp.cube
TITLE "Generated by Resolve"
LUT_3D_SIZE 5
0 0 0
0.25275 0 0.00732433
0.505531 0 0.0146639
0.758297 0 0.0219883
1 0 0.0293278
0.0177005 0.246738 0
0.249302 0.250217 0
0.572183 0.165805 0.621271
0.803967 0.225589 0.0828107
1 0.226596 0.0860456
0.0354009 0.493492 0
0.287404 0.489632 0
0.498619 0.50045 0
1 0.326284 0.968399
1 0.331685 1
0.0531014 0.740246 0
0.309148 0.735119 0
0.547707 0.735744 0.000656138
0.747936 0.750683 0
1 0.615274 0.331502
0.0708019 0.986999 0
0.328847 0.981323 0
0.574838 0.979263 0
0.798077 0.985214 0.00494392
0.997253 1 0
0.230793 0 0.0200046
0.237064 0.00230411 0.265156
0.498604 0 0.264607
0.751247 0 0.264576
1 0 0.270512
0.0366674 0.232197 0.318334
0.249989 0.249989 0.249989
0.503426 0.248035 0.259159
0.756863 0.246098 0.268345
1 0.244144 0.277516
0.00732433 0.503014 0.198474
0.267689 0.496742 0.23006
0.499306 0.500221 0.24976
0.82208 0.415839 0.871397
1 0.475578 0.332815
0.0250706 0.749752 0.178561
0.285389 0.743496 0.210117
0.537408 0.739635 0.242496
0.748623 0.750454 0.249531
1 0.576272 1
0.0427863 0.996506 0.158648
0.30309 0.99025 0.190188
0.559136 0.985122 0.223117
0.797726 0.985748 0.250645
0.99794 1 0.249302
0.461601 0 0.0400092
0 0.124331 0.37438
0.474144 0.00462348 0.530343
0.730755 0 0.557443
0.997208 0 0.529244
0 0.315206 0.266468
0.480797 0.204593 0.269993
0.487068 0.252293 0.515175
0.748608 0.24892 0.514611
1 0.248142 0.51458
0.0733349 0.464393 0.636698
0.286656 0.482185 0.568353
0.499992 0.499992 0.499992
0.752758 0.498436 0.507317
1 0.496864 0.514656
0 0.759319 0.416861
0.257313 0.753017 0.448478
0.517693 0.746746 0.480064
0.74931 0.750225 0.499763
1 0.665843 1
0.0146487 1 0.396979
0.275059 0.999756 0.428565
0.535393 0.9935 0.460121
0.787411 0.989639 0.4925
0.998627 1 0.499535
0.692424 0 0.0599985
0 0.213092 0.387411
0.733928 0 0.356405
0.711208 0.0069276 0.795514
0.954742 0.0037995 0.845701
0 0.392721 0.276158
0.711604 0.159213 0.289998
0.124422 0.374304 0.62443
0.724147 0.254612 0.780346
0.980758 0.249912 0.807462
0.63505 0.281483 1
0.109911 0.565194 0.516548
0.7308 0.454597 0.519997
0.737072 0.502297 0.765179
0.998611 0.498924 0.764614
0.110002 0.69659 0.955047
0.323323 0.714397 0.886702
0.53666 0.732189 0.818357
0.749996 0.749996 0.749996
1 0.748043 0.759167
0 1 0.635248
0.24686 1 0.666865
0.507317 1 0.698482
0.767697 0.99675 0.730068
0.999313 1 0.749767
0.923232 0 0.0800031
0.131762 0.0369573 0.98201
0 0.248631 0.748882
0.970886 0.0226596 0.125078
0.948287 0.00924697 1
0 0.286305 0.931182
0.942412 0.113817 0.310002
0 0.463081 0.637415
0.983948 0.220188 0.606287
0.961212 0.256916 1
0 0.630411 0.53312
0 0.642725 0.526146
0.961608 0.409216 0.540002
0.374426 0.624308 0.874434
0.974151 0.504616 1
0.828809 0.454856 1
0.885054 0.531487 1
0.359915 0.815198 0.766552
0.980804 0.704601 0.770001
0.987076 0.7523 1
0.14667 0.928801 1
0.359991 0.946593 1
0.573327 0.964401 1
0.786664 0.982193 1
1 1 1
