src/test/resources/17p_cmp.cube
TITLE "Generated by Resolve"
LUT_3D_SIZE 9
0 0 0
0.126375 0 0.00366217
0.25275 0 0.00732433
0.379141 0 0.0110018
0.505531 0 0.0146639
0.631907 0 0.0183261
0.758297 0 0.0219883
0.884672 0 0.0256657
1 0 0.0293278
0.00885023 0.123369 0
0.124651 0.125093 0
0.286076 0.0829023 0.310628
0.401984 0.112779 0.0413977
0.524712 0.113298 0.0430152
0.648875 0.113359 0.044892
0.7738 0.113146 0.0472114
0.899214 0.112749 0.0499123
1 0.112245 0.052903
0.0177005 0.246738 0
0.143694 0.2448 0
0.249302 0.250217 0
0.502724 0.163134 0.484184
0.572183 0.165805 0.621271
0.683146 0.224537 0.0808423
0.803967 0.225589 0.0828107
0.926146 0.226276 0.0842451
1 0.226596 0.0860456
0.0265507 0.370123 0
0.154559 0.367559 0
0.273854 0.367864 0.000320439
0.373968 0.375326 0
0.670375 0.307607 0.16585
0.590372 0.292287 0.921157
0.858106 0.248753 0.932097
0.981033 0.32874 0.145968
1 0.337423 0.122347
0.0354009 0.493492 0
0.164416 0.490654 0
0.287404 0.489632 0
0.399023 0.492592 0.00247196
0.498619 0.50045 0
0.686091 0.477958 0.0383001
1 0.326284 0.968399
0.748837 0.408331 1
1 0.331685 1
0.0442512 0.616876 0
0.173693 0.613916 0
0.298558 0.612253 0
0.41912 0.612177 0
0.522103 0.618082 0.00334173
0.623285 0.625559 0
0.760189 0.621424 0.00529488
1 0.432593 0.654246
1 0.456962 1
0.0531014 0.740246 0
0.182742 0.73724 0
0.309148 0.735119 0
0.431128 0.734447 0
0.547707 0.735744 0.000656138
0.644938 0.743694 0.00363165
0.747936 0.750683 0
0.868955 0.752087 0
1 0.615274 0.331502
0.0619516 0.86363 0
0.191699 0.860594 0
0.319203 0.858167 0
0.442374 0.857038 0
0.563256 0.856855 0
0.673716 0.860197 0.00321965
0.768048 0.869261 0.00367742
0.872602 0.875792 0
0.991989 0.877745 0
0.0708019 0.986999 0
0.20061 0.983963 0
0.328847 0.981323 0
0.453239 0.979797 0
0.574838 0.979263 0
0.693492 0.979889 0
0.798077 0.985214 0.00494392
0.891463 0.994736 0.00361639
0.997253 1 0
0.115389 0 0.00999466
0.118517 0.00115969 0.13257
0.249287 0 0.132296
0.375616 0 0.13228
0.501701 0 0.135241
0.627863 0 0.138537
0.754116 0 0.142092
0.880446 0 0.145846
1 0 0.149783
0.0183261 0.116091 0.159152
0.124987 0.124987 0.124987
0.251377 0.124208 0.128649
0.377752 0.12343 0.132311
0.504143 0.122637 0.135988
0.630533 0.121859 0.139651
0.756909 0.12108 0.143313
0.883299 0.120302 0.146975
1 0.119524 0.150652
0.00366217 0.251499 0.0992294
0.133837 0.248371 0.115023
0.249653 0.250095 0.12488
0.411032 0.207904 0.435691
0.526986 0.237781 0.1664
0.649729 0.2383 0.168017
0.773877 0.238361 0.169879
0.898802 0.238148 0.172198
1 0.237751 0.174899
0.0125277 0.374868 0.0892805
0.142687 0.37174 0.105058
0.268696 0.369802 0.121233
0.374304 0.375219 0.124758
0.627787 0.288121 0.609125
0.697078 0.290837 0.746395
0.808148 0.349538 0.205829
0.928985 0.350576 0.207813
1 0.351278 0.209232
0.0213931 0.498238 0.0793164
0.151537 0.495125 0.0950942
0.279561 0.492561 0.111559
0.398856 0.492866 0.125307
0.49897 0.500328 0.124651
0.795316 0.432624 0.290745
0.715419 0.417273 1
0.983124 0.373754 1
1 0.453727 0.270954
0.0302434 0.621622 0.0693523
0.160388 0.618494 0.0851148
0.289418 0.615656 0.101381
0.412406 0.614633 0.117494
0.524025 0.617594 0.127459
0.623621 0.625452 0.124529
0.811093 0.60296 0.163302
1 0.45127 1
0.873838 0.533333 1
0.0391089 0.744991 0.0593881
0.169238 0.741878 0.0751507
0.298695 0.738918 0.0912795
0.42356 0.73727 0.108095
0.544137 0.737163 0.122057
0.647105 0.743084 0.128328
0.748287 0.750561 0.124422
0.885206 0.746426 0.130282
1 0.55758 0.779248
0.0479591 0.868376 0.0494087
0.178088 0.865248 0.0651865
0.307744 0.862242 0.0812238
0.434134 0.860121 0.0981155
0.55613 0.859449 0.113741
0.672724 0.860746 0.125643
0.76994 0.868696 0.128618
0.872938 0.875685 0.1243
0.993957 0.877089 0.122103
0.0568246 0.991745 0.0394446
0.186938 0.988632 0.0552224
0.316701 0.985595 0.0712139
0.444221 0.983154 0.087953
0.567376 0.98204 0.104494
0.688258 0.981857 0.118471
0.798718 0.985199 0.128206
0.89305 0.994263 0.128664
0.997604 1 0.124193
0.230793 0 0.0200046
0 0.0621653 0.187182
0.237064 0.00230411 0.265156
0.365362 0 0.278721
0.498604 0 0.264607
0.625223 0 0.262196
0.751247 0 0.264576
0.877317 0 0.26746
1 0 0.270512
0 0.157595 0.133227
0.240391 0.102296 0.134981
0.243519 0.126146 0.257572
0.374289 0.124453 0.257298
0.500618 0.124071 0.257282
0.626703 0.123445 0.260243
0.752865 0.122774 0.263539
0.879118 0.122042 0.267094
1 0.121263 0.270863
0.0366674 0.232197 0.318334
0.143328 0.241093 0.284169
0.249989 0.249989 0.249989
0.376699 0.249012 0.254582
0.503426 0.248035 0.259159
0.630137 0.247074 0.263752
0.756863 0.246098 0.268345
0.883574 0.245121 0.272938
1 0.244144 0.277516
0 0.379644 0.208423
0.128649 0.376501 0.224231
0.258839 0.373373 0.240024
0.374655 0.375097 0.249882
0.536034 0.332906 0.560693
0.651987 0.362783 0.291402
0.774731 0.363302 0.293019
0.898878 0.363363 0.294881
1 0.363149 0.2972
0.00732433 0.503014 0.198474
0.137514 0.49987 0.214267
0.267689 0.496742 0.23006
0.393698 0.494804 0.246235
0.499306 0.500221 0.24976
0.752789 0.413123 0.734127
0.82208 0.415839 0.871397
0.93315 0.47454 0.330831
1 0.475578 0.332815
0.0162051 0.626383 0.188525
0.14638 0.62324 0.204318
0.276539 0.620127 0.220096
0.404562 0.617563 0.236561
0.523857 0.617868 0.250309
0.623972 0.62533 0.249653
0.920317 0.557626 0.415747
0.840421 0.542275 1
1 0.498756 1
0.0250706 0.749752 0.178561
0.15523 0.746624 0.194354
0.285389 0.743496 0.210117
0.41442 0.740658 0.226383
0.537408 0.739635 0.242496
0.649027 0.742596 0.252461
0.748623 0.750454 0.249531
0.936095 0.727962 0.288304
1 0.576272 1
0.0339361 0.873121 0.168597
0.164096 0.869993 0.18439
0.29424 0.86688 0.200153
0.423697 0.86392 0.216281
0.548562 0.862272 0.233097
0.669139 0.862165 0.247059
0.772107 0.868086 0.25333
0.873289 0.875563 0.249424
1 0.871427 0.255283
0.0427863 0.996506 0.158648
0.172946 0.993378 0.174411
0.30309 0.99025 0.190188
0.432746 0.987243 0.206226
0.559136 0.985122 0.223117
0.681132 0.984451 0.238743
0.797726 0.985748 0.250645
0.894942 0.993698 0.25362
0.99794 1 0.249302
0.346197 0 0.0299992
0 0.106538 0.193744
0.366964 0 0.178195
0.355596 0.0034638 0.397757
0.477363 0.00189212 0.422843
0.617075 0 0.409277
0.747906 0 0.396933
0.874769 0 0.393256
1 0 0.394156
0 0.196353 0.138109
0.355795 0.0795911 0.144991
0.062211 0.187152 0.312215
0.362066 0.127291 0.390173
0.490364 0.124941 0.403723
0.623606 0.123919 0.389609
0.750225 0.12369 0.387182
0.876249 0.12314 0.389578
1 0.12253 0.392462
0.31751 0.140734 0.522271
0.0549477 0.282597 0.258274
0.365393 0.227298 0.259983
0.368521 0.251148 0.382574
0.49929 0.249454 0.3823
0.62562 0.249073 0.382284
0.751705 0.248447 0.385245
0.877867 0.247776 0.38854
1 0.247044 0.392096
0.0550088 0.348287 0.477516
0.161654 0.357183 0.443351
0.26833 0.366094 0.409171
0.37499 0.37499 0.37499
0.501381 0.374212 0.378653
0.627756 0.373434 0.382315
0.754147 0.372641 0.385992
0.880537 0.371862 0.389654
1 0.371084 0.393317
0 0.507805 0.317617
0.12343 0.504646 0.333425
0.253651 0.501503 0.349233
0.383841 0.498375 0.365026
0.499657 0.500099 0.374884
0.661036 0.457908 0.685695
0.776989 0.487785 0.416403
0.899733 0.488304 0.418021
1 0.488365 0.419883
0.00210575 0.631159 0.307668
0.132311 0.628016 0.323476
0.262516 0.624872 0.339269
0.392691 0.621744 0.355062
0.5187 0.619806 0.371237
0.624308 0.625223 0.374762
0.877791 0.538125 0.859129
0.947082 0.540841 0.996399
1 0.599542 0.455833
0.0109865 0.754528 0.297734
0.141192 0.751385 0.313527
0.271382 0.748241 0.32932
0.401541 0.745129 0.345098
0.529564 0.742565 0.361563
0.648859 0.74287 0.375311
0.748974 0.750332 0.374655
1 0.682628 0.540749
0.965423 0.667277 1
0.0198672 0.877897 0.28777
0.150057 0.874754 0.303563
0.280232 0.871626 0.319356
0.410391 0.868498 0.335119
0.539422 0.86566 0.351385
0.662409 0.864637 0.367498
0.774029 0.867597 0.377462
0.873625 0.875456 0.374533
1 0.852964 0.413306
0.0287327 1 0.277821
0.158907 0.998138 0.293614
0.289097 0.994995 0.309392
0.419242 0.991882 0.325154
0.548699 0.988922 0.341283
0.673564 0.987274 0.358099
0.794141 0.987167 0.372061
0.897108 0.993088 0.378332
0.998291 1 0.374426
0.461601 0 0.0400092
0.0660258 0.0184329 0.491035
0 0.124331 0.37438
0.485435 0.0113222 0.062562
0.474144 0.00462348 0.530343
0.589776 0.00408942 0.563119
0.730755 0 0.557443
0.867369 0 0.540185
0.997208 0 0.529244
0 0.143099 0.46566
0.471199 0.0569009 0.154986
0 0.23154 0.3187
0.491966 0.110094 0.303136
0.480598 0.12845 0.522759
0.602365 0.126879 0.547845
0.742077 0.123873 0.534279
0.872908 0.1234 0.52192
0.999771 0.123217 0.518257
0 0.315206 0.266468
0 0.321355 0.263066
0.480797 0.204593 0.269993
0.187213 0.312154 0.437217
0.487068 0.252293 0.515175
0.615366 0.249943 0.528725
0.748608 0.24892 0.514611
0.875227 0.248692 0.512184
1 0.248142 0.51458
0.41442 0.22742 0.741497
0.442512 0.265736 0.647272
0.17995 0.407599 0.383276
0.490394 0.3523 0.384985
0.493523 0.37615 0.507576
0.624292 0.374456 0.507301
0.750622 0.374075 0.507286
0.876707 0.373449 0.510246
1 0.372778 0.513542
0.0733349 0.464393 0.636698
0.179995 0.473289 0.602518
0.286656 0.482185 0.568353
0.393332 0.491096 0.534173
0.499992 0.499992 0.499992
0.626383 0.499214 0.503655
0.752758 0.498436 0.507317
0.879149 0.497642 0.510994
1 0.496864 0.514656
0 0.635615 0.429419
0.118181 0.632807 0.442618
0.248432 0.629648 0.458427
0.378653 0.626505 0.474235
0.508843 0.623377 0.490028
0.624659 0.625101 0.499886
0.786038 0.58291 0.810697
0.901991 0.612787 0.541405
1 0.613306 0.543023
0 0.759319 0.416861
0.127092 0.756161 0.43267
0.257313 0.753017 0.448478
0.387518 0.749874 0.464271
0.517693 0.746746 0.480064
0.643702 0.744808 0.496239
0.74931 0.750225 0.499763
1 0.663127 0.984131
1 0.665843 1
0.00576791 0.882673 0.406928
0.135973 0.87953 0.422721
0.266194 0.876387 0.438529
0.396384 0.873243 0.454322
0.526543 0.87013 0.4701
0.654566 0.867567 0.486564
0.773861 0.867872 0.500313
0.873976 0.875334 0.499657
1 0.80763 0.665751
0.0146487 1 0.396979
0.144854 1 0.412772
0.275059 0.999756 0.428565
0.405234 0.996628 0.444358
0.535393 0.9935 0.460121
0.664424 0.990662 0.476387
0.787411 0.989639 0.4925
0.899031 0.992599 0.502464
0.998627 1 0.499535
0.577005 0 0.0500038
0.43473 0 0.532738
0 0.203037 0.262181
0.423423 0 0.599252
0.612192 0.0240787 0.0560159
0.592676 0.00578317 0.662928
0.702678 0.00630198 0.701869
0.842741 0.00170901 0.703075
0.983017 0 0.688151
0.261143 0.0406958 0.69099
0.586603 0.0342107 0.164996
0.190875 0.143465 0.615991
0 0.249302 0.499428
0.610437 0.136324 0.187533
0.599145 0.12961 0.655344
0.714778 0.129076 0.688121
0.855756 0.12491 0.68246
0.992386 0.123201 0.665187
0 0.375006 0.123262
0.0755932 0.268147 0.590585
0.596201 0.181903 0.279988
0.0781262 0.356542 0.443702
0.616968 0.235096 0.428138
0.6056 0.253452 0.647761
0.727367 0.251881 0.672847
0.867079 0.248875 0.659281
0.997909 0.248402 0.646922
0.366552 0.244327 0.839918
0 0.440192 0.391546
0.0903639 0.446357 0.388067
0.605798 0.329595 0.394995
0.312215 0.437156 0.562219
0.61207 0.377295 0.640177
0.740368 0.374945 0.653727
0.87361 0.373922 0.639612
1 0.373693 0.637186
0.476097 0.324849 0.958099
0.539391 0.352422 0.866514
0.567514 0.390738 0.772274
0.304952 0.532601 0.508278
0.615396 0.477302 0.509987
0.618524 0.501152 0.632578
0.749294 0.499458 0.632303
0.875624 0.499077 0.632288
1 0.498451 0.635248
0.0916762 0.580499 0.79588
0.198322 0.589395 0.7617
0.304997 0.598291 0.72752
0.411658 0.607187 0.693355
0.518334 0.616098 0.659175
0.624994 0.624994 0.624994
0.751385 0.624216 0.628656
0.87776 0.623438 0.632319
1 0.622644 0.635996
0 0.761578 0.553521
0.113237 0.760616 0.554421
0.243183 0.757809 0.56762
0.373434 0.75465 0.583429
0.503655 0.751507 0.599237
0.633844 0.748379 0.61503
0.74966 0.750103 0.624887
0.91104 0.707912 0.935699
1 0.737789 0.666407
0 0.887465 0.526055
0.121859 0.884321 0.541863
0.252094 0.881163 0.557671
0.382315 0.878019 0.57348
0.51252 0.874876 0.589273
0.642695 0.871748 0.605066
0.768704 0.86981 0.621241
0.874311 0.875227 0.624765
1 0.788128 1
0.000534066 1 0.516121
0.130755 1 0.531914
0.260975 1 0.547723
0.391196 1 0.563531
0.521385 0.998245 0.579324
0.651545 0.995132 0.595102
0.779568 0.992569 0.611566
0.898863 0.992874 0.625315
0.998978 1 0.624659
0.692424 0 0.0599985
0.657374 0 0.423819
0 0.213092 0.387411
0 0.186465 0.561654
0.733928 0 0.356405
0.760037 0.0242313 0.112306
0.711208 0.0069276 0.795514
0.815869 0.00849927 0.839948
0.954742 0.0037995 0.845701
0.540841 0 0.738872
0.702007 0.0115053 0.17499
0.559609 0.0422522 0.657847
0 0.328038 0.387167
0.548547 0.113161 0.724193
0.737194 0.149081 0.181003
0.717678 0.13077 0.78793
0.82768 0.131289 0.826871
0.967742 0.126696 0.828077
0 0.392721 0.276158
0.385977 0.165743 0.816007
0.711604 0.159213 0.289998
0.315877 0.268467 0.740993
0.124422 0.374304 0.62443
0.735439 0.261326 0.312535
0.724147 0.254612 0.780346
0.83978 0.254078 0.813123
0.980758 0.249912 0.807462
0 0.472831 0.399695
0 0.500008 0.248264
0.200595 0.393149 0.715587
0.721202 0.306905 0.40499
0.203128 0.481544 0.568704
0.74197 0.360098 0.55314
0.730602 0.378454 0.772763
0.852369 0.376883 0.797848
0.992081 0.373892 0.784283
0.63505 0.281483 1
0.491646 0.369299 0.964935
0.109911 0.565194 0.516548
0.215366 0.571359 0.513069
0.7308 0.454597 0.519997
0.437217 0.562158 0.687221
0.737072 0.502297 0.765179
0.86537 0.499947 0.778729
0.998611 0.498924 0.764614
0.516579 0.429541 1
0.601083 0.449836 1
0.664393 0.477424 0.991516
0.692515 0.51574 0.897276
0.429953 0.657603 0.63328
0.740398 0.602304 0.634989
0.743526 0.626154 0.75758
0.874296 0.62446 0.757305
1 0.624079 0.75729
0.110002 0.69659 0.955047
0.216663 0.705501 0.920882
0.323323 0.714397 0.886702
0.429999 0.723293 0.852522
0.53666 0.732189 0.818357
0.643336 0.7411 0.784176
0.749996 0.749996 0.749996
0.876707 0.74902 0.754589
1 0.748043 0.759167
0 0.885771 0.687236
0.110292 0.88658 0.678523
0.238239 0.885618 0.679423
0.368185 0.882811 0.692622
0.498436 0.879652 0.708431
0.628656 0.876509 0.724239
0.758846 0.873381 0.740032
0.874662 0.875105 0.749889
1 0.832914 1
0 1 0.635248
0.116625 1 0.651041
0.24686 1 0.666865
0.377096 1 0.682673
0.507317 1 0.698482
0.637522 0.999878 0.714275
0.767697 0.99675 0.730068
0.893706 0.994812 0.746242
0.999313 1 0.749767
0.807828 0 0.0700084
0.800641 0 0.330175
0 0.154314 0.689555
0 0.280217 0.40705
0.334874 0.0457313 0.908232
0.859068 0 0.195315
0.9187 0.0158541 0.221271
0.829755 0.00808728 0.928115
0.929259 0.0106661 0.977661
0.751339 0 0.721477
0.817411 0 0.185
0.78233 0 0.548974
0 0.338079 0.512413
0 0.311467 0.686656
0.858946 0.0951858 0.481285
0.885039 0.149218 0.237293
0.83621 0.131914 0.920531
0.940871 0.133486 0.96495
0 0.365148 0.578408
0.665705 0.0903639 0.863966
0.827008 0.136507 0.299992
0.684611 0.167254 0.782849
0 0.45304 0.512169
0.673548 0.238163 0.849195
0.862196 0.274083 0.306004
0.84268 0.255772 0.912932
0.952682 0.256291 0.951873
0 0.544076 0.173327
0 0.517723 0.401144
0.510979 0.290745 0.941009
0.836606 0.284215 0.415
0.440879 0.393469 0.865995
0.249424 0.499306 0.749432
0.860441 0.386328 0.437537
0.849149 0.379614 0.905348
0.964782 0.379095 0.938125
0.276081 0.396292 1
0 0.597803 0.524834
0 0.62501 0.373266
0.325597 0.518151 0.840589
0.846204 0.431907 0.529992
0.32813 0.606546 0.693706
0.866972 0.4851 0.678141
0.855604 0.503456 0.897765
0.977371 0.501884 0.92285
0.744564 0.364553 1
0.760052 0.406485 1
0.616648 0.494301 1
0.234913 0.690196 0.64155
0.340368 0.696361 0.638071
0.855802 0.579599 0.644999
0.562219 0.68716 0.812222
0.862074 0.627298 0.890181
0.990372 0.624949 0.903731
0.545708 0.538628 1
0.641581 0.554543 1
0.726085 0.574838 1
0.789395 0.602426 1
0.817517 0.640742 1
0.554955 0.782605 0.758282
0.8654 0.727306 0.759991
0.868528 0.751156 0.882582
0.999298 0.749462 0.882307
0.128344 0.812696 1
0.234989 0.821591 1
0.341665 0.830503 1
0.448325 0.839399 1
0.555001 0.848295 0.977523
0.661662 0.857191 0.943358
0.768338 0.866102 0.909178
0.874998 0.874998 0.874998
1 0.87422 0.87866
0 1 0.827176
0.110048 1 0.812238
0.235294 1 0.803525
0.363241 1 0.804425
0.493187 1 0.817624
0.623438 1 0.833432
0.753658 1 0.849241
0.883848 0.998383 0.865034
0.999664 1 0.874891
0.923232 0 0.0800031
0.919646 0 0.26276
0.131762 0.0369573 0.98201
0 0.319966 0.415961
0 0.248631 0.748882
0.858579 0 0.790845
0.970886 0.0226596 0.125078
1 0.00427253 0.367056
0.948287 0.00924697 1
0.919264 0 0.692409
0.93283 0 0.194995
0.925628 0 0.455299
0 0.279377 0.81442
0 0.405203 0.532052
0.459861 0.170718 1
0.98407 0.124025 0.320317
1 0.140841 0.346258
0.954757 0.133074 1
0 0.286305 0.931182
0.876249 0.0421454 0.846632
0.942412 0.113817 0.310002
0.907332 0.124651 0.673976
0 0.463081 0.637415
0.0616465 0.436469 0.811658
0.983948 0.220188 0.606287
1 0.27422 0.362295
0.961212 0.256916 1
0 0.576974 0.230625
0 0.490196 0.703273
0.790707 0.215366 0.988968
0.95201 0.261509 0.424994
0.809613 0.292256 0.907851
0.0651408 0.578042 0.637171
0.79855 0.363165 0.974197
0.987198 0.399084 0.431006
0.967681 0.380774 1
0 0.630411 0.53312
0 0.669078 0.298329
0 0.642725 0.526146
0.635981 0.415747 1
0.961608 0.409216 0.540002
0.565881 0.518471 0.990997
0.374426 0.624308 0.874434
0.985443 0.51133 0.562539
0.974151 0.504616 1
0.735546 0.369207 1
0.401083 0.521279 1
0.0398718 0.722805 0.649836
0.124788 0.750011 0.498268
0.450599 0.643153 0.965591
0.971206 0.556909 0.654994
0.453132 0.731548 0.818708
0.991974 0.610101 0.803143
0.980606 0.628458 1
0.828809 0.454856 1
0.869566 0.489555 1
0.885054 0.531487 1
0.74165 0.619303 1
0.359915 0.815198 0.766552
0.46537 0.821363 0.763073
0.980804 0.704601 0.770001
0.687221 0.812161 0.937224
0.987076 0.7523 1
0.565988 0.651286 1
0.67071 0.66363 1
0.766583 0.679545 1
0.851087 0.69984 1
0.914397 0.727428 1
0.942519 0.765743 1
0.679957 0.907607 0.883284
0.990402 0.852308 0.884993
0.99353 0.876158 1
0.14667 0.928801 1
0.25333 0.937697 1
0.359991 0.946593 1
0.466667 0.955505 1
0.573327 0.964401 1
0.680003 0.973297 1
0.786664 0.982193 1
0.893339 0.991104 1
1 1 1
