src/test/resources/17p_cmp.cube
TITLE "Generated by Resolve"
LUT_3D_SIZE 17
0 0 0
0.0631723 0 0.00183108
0.126375 0 0.00366217
0.189563 0 0.00549325
0.25275 0 0.00732433
0.315953 0 0.00917067
0.379141 0 0.0110018
0.442329 0 0.0128328
0.505531 0 0.0146639
0.568719 0 0.016495
0.631907 0 0.0183261
0.695094 0 0.0201572
0.758297 0 0.0219883
0.821485 0 0.0238346
0.884672 0 0.0256657
0.947875 0 0.0274968
1 0 0.0293278
0.00442512 0.061677 0
0.0623178 0.0625467 0
0.143084 0.0414282 0.15523
0.200977 0.0563821 0.0207065
0.262348 0.0566415 0.0215152
0.324422 0.056672 0.022446
0.386892 0.0565652 0.0236057
0.449592 0.0563668 0.0249485
0.512444 0.0561227 0.0264439
0.575387 0.0558175 0.0280308
0.638407 0.0554971 0.0297093
0.701457 0.0551614 0.0314336
0.764553 0.0548104 0.0332036
0.82768 0.0544442 0.0350195
0.890806 0.0540627 0.0368353
0.953964 0.0536812 0.0386816
1 0.0532998 0.0405585
0.00885023 0.123369 0
0.0718395 0.122393 0
0.124651 0.125093 0
0.251331 0.0815747 0.242115
0.286076 0.0829023 0.310628
0.341558 0.112261 0.0404212
0.401984 0.112779 0.0413977
0.463066 0.11313 0.0421149
0.524712 0.113298 0.0430152
0.586664 0.113375 0.0439002
0.648875 0.113359 0.044892
0.711269 0.113283 0.0460059
0.7738 0.113146 0.0472114
0.836469 0.112963 0.0485237
0.899214 0.112749 0.0499123
0.96202 0.112505 0.0513771
1 0.112245 0.052903
0.0132753 0.185046 0
0.0772717 0.183764 0
0.136919 0.183932 0.000167849
0.186969 0.187655 0
0.33518 0.153796 0.0829328
0.295171 0.146136 0.460563
0.429129 0.124361 0.46595
0.490486 0.16437 0.0729381
0.542412 0.168704 0.0611734
0.602975 0.169192 0.0621042
0.664012 0.169528 0.0629282
0.725414 0.169787 0.0637217
0.787091 0.169955 0.0645304
0.848997 0.170031 0.0654002
0.91107 0.170062 0.066331
0.973312 0.170047 0.0673381
1 0.16997 0.0684367
0.0177005 0.246738 0
0.0822003 0.245319 0
0.143694 0.2448 0
0.199512 0.246296 0.00123598
0.249302 0.250217 0
0.343038 0.238972 0.0191501
0.502724 0.163134 0.484184
0.374395 0.204166 0.639704
0.572183 0.165805 0.621271
0.666499 0.203235 0.156802
0.683146 0.224537 0.0808423
0.743328 0.225116 0.0818952
0.803967 0.225589 0.0828107
0.864958 0.225956 0.0836347
0.926146 0.226276 0.0842451
0.987747 0.226444 0.0852216
1 0.226596 0.0860456
0.0221256 0.308431 0
0.0868391 0.30695 0
0.149279 0.306127 0
0.209552 0.306081 0
0.261036 0.309041 0.00166323
0.311635 0.312779 0
0.380087 0.310704 0.00265507
0.650019 0.216297 0.327123
0.534798 0.228489 0.729549
0.466377 0.258656 0.816297
0.715236 0.207263 0.776593
0.851972 0.235492 0.27834
0.824796 0.280003 0.10164
0.883955 0.280995 0.10161
0.944289 0.281529 0.102617
1 0.281987 0.103517
1 0.282353 0.104341
0.0265507 0.370123 0
0.0913558 0.368612 0
0.154559 0.367559 0
0.215549 0.367208 0
0.273854 0.367864 0.000320439
0.322469 0.371847 0.00181582
0.373968 0.375326 0
0.43447 0.376028 0
0.670375 0.307607 0.16585
0.754101 0.244709 0.726284
0.590372 0.292287 0.921157
0.572106 0.309178 0.991653
0.858106 0.248753 0.932097
1 0.265965 0.423041
0.981033 0.32874 0.145968
1 0.336812 0.121263
1 0.337423 0.122347
0.0309758 0.4318 0
0.0958419 0.430289 0
0.159594 0.429068 0
0.22118 0.428519 0
0.281621 0.428412 0
0.336858 0.430091 0.0016022
0.384024 0.434623 0.00184634
0.436286 0.437888 0
0.495995 0.438865 0
0.669703 0.397589 0.0795758
0.928908 0.287984 0.586099
0.781384 0.309758 0.9888
0.664942 0.351568 1
0.688121 0.356786 1
1 0.290211 1
1 0.297108 0.579232
1 0.370428 0.217182
0.0354009 0.493492 0
0.100298 0.491966 0
0.164416 0.490654 0
0.226612 0.489891 0
0.287404 0.489632 0
0.346731 0.489937 0
0.399023 0.492592 0.00247196
0.445716 0.497368 0.00181582
0.498619 0.50045 0
0.558038 0.501518 0
0.686091 0.477958 0.0383001
0.997742 0.367605 0.39791
1 0.326284 0.968399
0.826368 0.375372 1
0.748837 0.408331 1
0.811627 0.402335 1
1 0.331685 1
0.039826 0.555184 0
0.104738 0.553658 0
0.1691 0.55227 0
0.231861 0.551339 0
0.29305 0.550912 0
0.353536 0.550805 0
0.410773 0.551812 0.000488289
0.46067 0.555306 0.00300603
0.507561 0.560067 0.00175479
0.560952 0.562997 0
0.620127 0.564157 0
0.716533 0.552224 0.0162509
1 0.461448 0.248631
1 0.36434 0.840909
1 0.390494 1
0.885573 0.438437 1
0.838331 0.463539 1
0.0442512 0.616876 0
0.109178 0.615335 0
0.173693 0.613916 0
0.236927 0.612848 0
0.298558 0.612253 0
0.359258 0.612039 0
0.41912 0.612177 0
0.47396 0.613962 0.00184634
0.522103 0.618082 0.00334173
0.569482 0.622751 0.00169375
0.623285 0.625559 0
0.682261 0.62678 0
0.760189 0.621424 0.00529488
1 0.553231 0.151904
1 0.432593 0.654246
1 0.407858 1
1 0.456962 1
0.0486763 0.678553 0
0.113619 0.677028 0
0.178241 0.675578 0
0.24184 0.674403 0
0.303929 0.673671 0
0.364935 0.67332 0
0.425406 0.673213 0
0.483787 0.673838 0
0.536507 0.676341 0.00291447
0.583398 0.680919 0.00350958
0.631495 0.685405 0.00163272
0.685603 0.688121 0
0.744411 0.689387 0
0.811704 0.68777 0
1 0.637461 0.0948959
1 0.520806 0.473991
1 0.442817 1
0.0531014 0.740246 0
0.118059 0.738705 0
0.182742 0.73724 0
0.246632 0.735988 0
0.309148 0.735119 0
0.370474 0.734646 0
0.431128 0.734447 0
0.491249 0.734493 0
0.547707 0.735744 0.000656138
0.59855 0.738903 0.00370794
0.644938 0.743694 0.00363165
0.693538 0.748043 0.00155642
0.747936 0.750683 0
0.806592 0.751995 0
0.868955 0.752087 0
1 0.71696 0.0574655
1 0.615274 0.331502
0.0575265 0.801938 0
0.122484 0.800397 0
0.187228 0.798917 0
0.251316 0.797604 0
0.314244 0.796628 0
0.375921 0.796017 0
0.436805 0.795712 0
0.497261 0.795621 0
0.556344 0.796017 0
0.610971 0.797879 0.00205997
0.660243 0.801587 0.00428779
0.706462 0.806485 0.00367742
0.755718 0.810636 0.00151064
0.810269 0.81323 0
0.868803 0.814588 0
0.930007 0.815076 0
1 0.79237 0.0327001
0.0619516 0.86363 0
0.126925 0.862089 0
0.191699 0.860594 0
0.255955 0.859236 0
0.319203 0.858167 0
0.381231 0.85745 0
0.442374 0.857038 0
0.502983 0.856855 0
0.563256 0.856855 0
0.620798 0.857755 0
0.673716 0.860197 0.00321965
0.721736 0.864347 0.00471504
0.768048 0.869261 0.00367742
0.817899 0.873243 0.00144961
0.872602 0.875792 0
0.93106 0.877165 0
0.991989 0.877745 0
0.0663767 0.925307 0
0.13135 0.923766 0
0.196155 0.922271 0
0.260548 0.920882 0
0.324071 0.919722 0
0.386435 0.918914 0
0.447852 0.918395 0
0.508659 0.91812 0
0.569131 0.918029 0
0.628687 0.918257 0
0.684642 0.919692 0.000823987
0.736126 0.922621 0.00418097
0.783154 0.927138 0.00500496
0.829709 0.932006 0.00366217
0.880064 0.935851 0.00137331
0.93492 0.938354 0
0.993271 0.939773 0
0.0708019 0.986999 0
0.135775 0.985458 0
0.20061 0.983963 0
0.26508 0.982544 0
0.328847 0.981323 0
0.391546 0.980407 0
0.453239 0.979797 0
0.51426 0.979431 0
0.574838 0.979263 0
0.635203 0.979232 0
0.693492 0.979889 0
0.747982 0.981796 0.00224308
0.798077 0.985214 0.00494392
0.844541 0.989944 0.00521859
0.891463 0.994736 0.00361639
0.94226 0.998444 0.00131228
0.997253 1 0
0.0576944 0 0.00500496
0.0592508 0.000579843 0.0662852
0.124636 0 0.0661326
0.187808 0 0.0661326
0.250843 0 0.0676127
0.313924 0 0.0692607
0.37705 0 0.0710307
0.440223 0 0.0729229
0.50341 0 0.0748913
0.566644 0 0.0769055
0.629892 0 0.0789807
0.693141 0 0.0810864
0.75642 0 0.0832074
0.819715 0 0.085359
0.883009 0 0.0875563
0.946303 0 0.0897383
1 0 0.0919203
0.00917067 0.0580301 0.0795758
0.0624857 0.0624857 0.0624857
0.125673 0.062089 0.0643168
0.188876 0.0617075 0.0661479
0.252064 0.0613107 0.0679789
0.315251 0.0609293 0.06981
0.378454 0.0605325 0.0716564
0.441642 0.0601358 0.0734875
0.504829 0.0597543 0.0753185
0.568032 0.0593576 0.0771496
0.63122 0.0589761 0.0789807
0.694408 0.0585794 0.0808118
0.75761 0.0581826 0.0826429
0.820798 0.0578012 0.0844739
0.883986 0.0574044 0.0863203
0.947173 0.057023 0.0881514
1 0.0566262 0.0899825
0.00183108 0.125734 0.0496071
0.0669108 0.124178 0.057496
0.124819 0.125048 0.0624247
0.205509 0.103944 0.217838
0.263478 0.118883 0.0831922
0.324849 0.119142 0.0840009
0.386923 0.119173 0.0849317
0.449393 0.119066 0.0860914
0.512093 0.118868 0.0874495
0.574945 0.118608 0.0889296
0.637888 0.118318 0.0905318
0.700908 0.117998 0.092195
0.763958 0.117662 0.0939193
0.827054 0.117311 0.0956893
0.890181 0.116945 0.0975052
0.953307 0.116564 0.099321
1 0.116182 0.101183
0.00627146 0.187427 0.0446326
0.0713359 0.18587 0.0525216
0.13434 0.184894 0.0606088
0.187152 0.187594 0.0623789
0.313878 0.14406 0.304555
0.348531 0.145403 0.37319
0.404074 0.174762 0.102907
0.464485 0.17528 0.103899
0.525567 0.175631 0.104616
0.587228 0.175799 0.105516
0.649165 0.175875 0.106386
0.711376 0.17586 0.107378
0.77377 0.175769 0.108492
0.836301 0.175647 0.109697
0.89897 0.175463 0.111009
0.961715 0.17525 0.112398
1 0.175006 0.113863
0.0106966 0.249119 0.0396429
0.075761 0.247547 0.0475319
0.139773 0.246265 0.0557717
0.19942 0.246418 0.0626535
0.24947 0.250156 0.0623178
0.39765 0.216312 0.145357
0.357702 0.208637 0.523064
0.491554 0.186862 0.528542
0.553017 0.226856 0.13547
0.604913 0.231205 0.123659
0.665476 0.231678 0.124605
0.726528 0.232029 0.125429
0.787915 0.232288 0.126207
0.849592 0.232441 0.127016
0.911498 0.232532 0.127886
0.973571 0.232563 0.128817
1 0.232547 0.129824
0.0151217 0.310796 0.0346685
0.0801862 0.309239 0.0425574
0.144701 0.30782 0.0506905
0.206195 0.307301 0.058732
0.262013 0.308797 0.0637217
0.311803 0.312718 0.0622568
0.405539 0.301472 0.0816358
0.565286 0.22562 0.546624
0.436912 0.266667 0.702205
0.634577 0.228336 0.683894
0.729061 0.265705 0.219409
0.745647 0.287037 0.143328
0.805844 0.287617 0.144396
0.866484 0.288075 0.145312
0.927474 0.288441 0.146136
0.988647 0.288777 0.146731
1 0.288945 0.147723
0.0195621 0.372488 0.0296788
0.0846113 0.370932 0.0375677
0.14934 0.369451 0.0456245
0.21178 0.368627 0.0540475
0.272053 0.368582 0.0610208
0.323537 0.371542 0.0641489
0.374136 0.37528 0.0621958
0.442588 0.373205 0.0651408
0.712535 0.278782 0.389624
0.59736 0.290974 0.792035
0.528878 0.321157 0.878813
0.7776 0.269795 0.839261
0.914488 0.297993 0.340841
0.887312 0.342489 0.164141
0.946456 0.343496 0.164096
1 0.34403 0.165103
1 0.344488 0.166018
0.0239719 0.43418 0.0247044
0.0890364 0.432624 0.0325933
0.153872 0.431113 0.0406043
0.21706 0.43006 0.0490578
0.27805 0.429709 0.0568704
0.336355 0.430365 0.0628061
0.38497 0.434348 0.0643015
0.436469 0.437827 0.06215
0.496971 0.438529 0.0610361
0.732815 0.370123 0.228244
0.816678 0.307195 0.788693
0.652918 0.354772 0.983658
0.634577 0.371695 1
0.920623 0.311254 0.994614
1 0.328466 0.485542
1 0.391226 0.208453
1 0.399313 0.183764
0.0284123 0.495872 0.0197147
0.0934615 0.494301 0.0276036
0.158343 0.49279 0.0355993
0.222095 0.491569 0.0439612
0.28368 0.491005 0.0522469
0.344121 0.490913 0.0592203
0.399344 0.492592 0.0640879
0.446525 0.497124 0.064332
0.498787 0.500389 0.062089
0.558495 0.501366 0.0606546
0.732204 0.46009 0.142061
0.991424 0.350484 0.6486
0.843976 0.372229 1
0.727443 0.414054 1
0.750546 0.419303 1
1 0.352712 1
1 0.359594 0.641733
0.0328374 0.557549 0.014725
0.0978866 0.555993 0.0226139
0.162799 0.554467 0.0305943
0.226917 0.553155 0.03888
0.289113 0.552392 0.0473487
0.349905 0.552132 0.0549935
0.409232 0.552438 0.0612802
0.461524 0.555093 0.0649577
0.508217 0.559869 0.0643015
0.56112 0.562951 0.0620279
0.620539 0.564019 0.0605173
0.748592 0.540459 0.100801
1 0.430091 0.46041
1 0.388769 1
0.888945 0.437842 1
0.811337 0.470832 1
0.874052 0.464851 1
0.0372625 0.619242 0.00975052
0.102312 0.617685 0.0176394
0.167254 0.616159 0.0256046
0.231601 0.614771 0.033814
0.294347 0.61384 0.0423438
0.355566 0.613413 0.0504005
0.416037 0.613306 0.0573892
0.473289 0.614298 0.062974
0.523156 0.617807 0.0654917
0.570062 0.622568 0.0642405
0.623453 0.625498 0.0619669
0.682628 0.626657 0.0603952
0.778988 0.61474 0.078706
1 0.523949 0.311116
1 0.426841 0.903181
1 0.452995 1
0.948135 0.500923 1
0.0416876 0.680934 0.00476081
0.106737 0.679377 0.0126497
0.171695 0.677836 0.0206149
0.236194 0.676417 0.0287785
0.299428 0.675349 0.0372625
0.361059 0.674769 0.045594
0.421759 0.67454 0.0531167
0.481636 0.674662 0.059556
0.536461 0.676463 0.064332
0.584604 0.680583 0.0658274
0.631983 0.685252 0.0641794
0.685786 0.68806 0.0619211
0.744762 0.689281 0.0602884
0.822705 0.683925 0.0677806
1 0.615732 0.214389
1 0.495079 0.716747
1 0.470344 1
0.0461128 0.742611 0
0.111162 0.741054 0.00767529
0.17612 0.739528 0.0156252
0.240726 0.738079 0.023743
0.304341 0.736904 0.032166
0.36643 0.736171 0.04065
0.42742 0.735821 0.0485542
0.487907 0.735714 0.0555428
0.546288 0.736339 0.0614786
0.599008 0.738842 0.0654002
0.645914 0.74342 0.0659953
0.693996 0.747906 0.0641184
0.748104 0.750622 0.0618601
0.806912 0.751888 0.0601816
0.874205 0.750271 0.062089
1 0.699947 0.157382
1 0.583368 0.536217
0.0505531 0.804303 0
0.115587 0.802747 0.00268559
0.18056 0.801205 0.0106355
0.245243 0.799741 0.0187228
0.309133 0.798489 0.0270848
0.371633 0.79762 0.0356146
0.432975 0.797147 0.0438087
0.493629 0.796948 0.0512398
0.55375 0.796994 0.0577859
0.610224 0.798245 0.0631418
0.661051 0.801404 0.0661936
0.707439 0.806195 0.0661173
0.756039 0.810544 0.0640421
0.810437 0.813184 0.061799
0.869093 0.814496 0.06009
0.931456 0.814588 0.0596017
1 0.779446 0.119951
0.054963 0.865995 0
0.120012 0.864439 0
0.184985 0.862898 0.00564584
0.249729 0.861418 0.0137179
0.313832 0.860105 0.0220188
0.37673 0.859129 0.0305486
0.438407 0.858518 0.0389258
0.49929 0.858213 0.0467079
0.559777 0.858122 0.0536965
0.618845 0.858518 0.0598306
0.673487 0.86038 0.0645457
0.722728 0.864088 0.0667735
0.768963 0.868986 0.0661631
0.818219 0.873152 0.0639963
0.87277 0.875731 0.061738
0.931319 0.877089 0.0600137
0.992508 0.877577 0.0589914
0.0593881 0.927687 0
0.124437 0.926131 0
0.189425 0.92459 0.000656138
0.2542 0.923095 0.0087129
0.318471 0.921736 0.0169528
0.38172 0.920653 0.025452
0.443732 0.919951 0.0339361
0.504875 0.919539 0.0419928
0.565484 0.919356 0.0493782
0.625757 0.919356 0.0559701
0.683284 0.920256 0.061677
0.736217 0.922698 0.0657054
0.784237 0.926848 0.0672007
0.830549 0.931762 0.0661631
0.8804 0.935744 0.0639353
0.935103 0.938293 0.0616922
0.99353 0.939681 0.0599222
0.0638285 0.989364 0
0.128862 0.987808 0
0.193851 0.986282 0
0.258671 0.984771 0.00370794
0.323049 0.983383 0.0119173
0.386572 0.982238 0.0203708
0.44892 0.981414 0.0289006
0.510353 0.980896 0.0371557
0.57116 0.980621 0.0448463
0.631632 0.980514 0.0518349
0.691203 0.980758 0.0580911
0.747143 0.982177 0.0633097
0.798642 0.985122 0.0666667
0.845655 0.989639 0.0674907
0.89221 0.994507 0.0661479
0.94258 0.998352 0.0638743
0.997421 1 0.0616312
0.115389 0 0.00999466
0 0.0310826 0.0935531
0.118517 0.00115969 0.13257
0.182681 0 0.139345
0.249287 0 0.132296
0.312596 0 0.13109
0.375616 0 0.13228
0.438651 0 0.13373
0.501701 0 0.135241
0.564767 0 0.136843
0.627863 0 0.138537
0.690974 0 0.140276
0.754116 0 0.142092
0.817273 0 0.143938
0.880446 0 0.145846
0.943633 0 0.147799
1 0 0.149783
0 0.0787976 0.0665599
0.120195 0.051133 0.0674907
0.121752 0.0630655 0.128786
0.187137 0.0622263 0.128649
0.250309 0.0620279 0.128634
0.313344 0.0617227 0.130114
0.376425 0.0613718 0.131762
0.439551 0.0610056 0.133532
0.502724 0.0606241 0.135424
0.565911 0.0602121 0.137392
0.629145 0.0598001 0.139406
0.692393 0.0593729 0.141482
0.755657 0.0589303 0.143587
0.818921 0.0584878 0.145724
0.882216 0.0580301 0.147875
0.94551 0.0575723 0.150042
1 0.0571145 0.152224
0.0183261 0.116091 0.159152
0.0716564 0.120531 0.142077
0.124987 0.124987 0.124987
0.188174 0.12459 0.126818
0.251377 0.124208 0.128649
0.314565 0.123812 0.13048
0.377752 0.12343 0.132311
0.440955 0.123033 0.134157
0.504143 0.122637 0.135988
0.56733 0.122255 0.137819
0.630533 0.121859 0.139651
0.693721 0.121477 0.141482
0.756909 0.12108 0.143313
0.820111 0.120684 0.145144
0.883299 0.120302 0.146975
0.946487 0.119905 0.148821
1 0.119524 0.150652
0 0.189822 0.104204
0.0643168 0.188251 0.112108
0.129412 0.186679 0.119997
0.18732 0.187549 0.124926
0.268009 0.166445 0.280339
0.325978 0.181384 0.145693
0.38735 0.181643 0.146502
0.449424 0.181674 0.147433
0.511894 0.181567 0.148592
0.574594 0.181369 0.14995
0.637446 0.181109 0.151431
0.700389 0.180819 0.153033
0.763409 0.180499 0.154696
0.826459 0.180163 0.15642
0.889555 0.179812 0.15819
0.952682 0.179446 0.160006
1 0.179065 0.161822
0.00366217 0.251499 0.0992294
0.0687572 0.249928 0.107134
0.133837 0.248371 0.115023
0.196841 0.247395 0.12311
0.249653 0.250095 0.12488
0.376379 0.206561 0.367056
0.411032 0.207904 0.435691
0.466575 0.237263 0.165408
0.526986 0.237781 0.1664
0.588067 0.238132 0.167117
0.649729 0.2383 0.168017
0.711666 0.238376 0.168887
0.773877 0.238361 0.169879
0.836271 0.23827 0.170993
0.898802 0.238148 0.172198
0.961471 0.237964 0.17351
1 0.237751 0.174899
0.00810254 0.313191 0.094255
0.0731823 0.31162 0.102144
0.138262 0.310048 0.110033
0.202274 0.308766 0.118273
0.261921 0.308919 0.125154
0.311971 0.312657 0.124819
0.460151 0.278813 0.207858
0.420203 0.271138 0.585565
0.554055 0.249363 0.591043
0.615518 0.289357 0.197971
0.667414 0.293706 0.18616
0.727977 0.294179 0.187106
0.789029 0.29453 0.18793
0.850416 0.294789 0.188708
0.912093 0.294942 0.189517
0.973999 0.295033 0.190387
1 0.295064 0.191318
0.0125277 0.374868 0.0892805
0.0776074 0.373297 0.0971695
0.142687 0.37174 0.105058
0.207202 0.370321 0.113191
0.268696 0.369802 0.121233
0.324514 0.371298 0.126223
0.374304 0.375219 0.124758
0.46804 0.363973 0.144137
0.627787 0.288121 0.609125
0.499413 0.329168 0.764706
0.697078 0.290837 0.746395
0.791562 0.328206 0.28191
0.808148 0.349538 0.205829
0.868345 0.350118 0.206897
0.928985 0.350576 0.207813
0.989975 0.350942 0.208637
1 0.351278 0.209232
0.016968 0.436561 0.0842908
0.0820325 0.434989 0.0921798
0.147112 0.433433 0.100069
0.211841 0.431952 0.108125
0.274281 0.431128 0.116548
0.334554 0.431083 0.123522
0.386038 0.434043 0.12665
0.436637 0.437781 0.124697
0.505089 0.435706 0.127642
0.775036 0.341283 0.452125
0.659861 0.353475 0.854536
0.591379 0.383658 0.941314
0.840101 0.332296 0.901762
0.976989 0.360494 0.403342
0.949813 0.40499 0.226642
1 0.405997 0.226596
1 0.406531 0.227604
0.0213931 0.498238 0.0793164
0.0864729 0.496681 0.0872053
0.151537 0.495125 0.0950942
0.216373 0.493614 0.103105
0.279561 0.492561 0.111559
0.340551 0.49221 0.119371
0.398856 0.492866 0.125307
0.447471 0.496849 0.126802
0.49897 0.500328 0.124651
0.559472 0.50103 0.123537
0.795316 0.432624 0.290745
0.879179 0.369696 0.851194
0.715419 0.417273 1
0.697078 0.434195 1
0.983124 0.373754 1
1 0.390967 0.548043
1 0.453727 0.270954
0.0258183 0.55993 0.0743267
0.090898 0.558373 0.0822156
0.155962 0.556802 0.0901045
0.220844 0.555291 0.0981003
0.284596 0.55407 0.106462
0.346181 0.553506 0.114748
0.406622 0.553414 0.121721
0.461845 0.555093 0.126589
0.509026 0.559625 0.126833
0.561288 0.56289 0.12459
0.620996 0.563867 0.123156
0.794705 0.522591 0.204562
1 0.412985 0.711101
0.906477 0.43473 1
0.789944 0.476555 1
0.813046 0.481804 1
1 0.415213 1
0.0302434 0.621622 0.0693523
0.0953231 0.62005 0.0772259
0.160388 0.618494 0.0851148
0.225299 0.616968 0.0930953
0.289418 0.615656 0.101381
0.351614 0.614893 0.10985
0.412406 0.614633 0.117494
0.471733 0.614939 0.123781
0.524025 0.617594 0.127459
0.570718 0.62237 0.126802
0.623621 0.625452 0.124529
0.68304 0.62652 0.123018
0.811093 0.60296 0.163302
1 0.492592 0.522911
1 0.45127 1
0.951446 0.500343 1
0.873838 0.533333 1
0.0346838 0.683314 0.0643626
0.0997482 0.681743 0.0722515
0.164813 0.680186 0.0801404
0.229755 0.67866 0.0881056
0.294102 0.677272 0.0963149
0.356847 0.676341 0.104845
0.418067 0.675914 0.112902
0.478538 0.675807 0.11989
0.53579 0.676799 0.125475
0.585657 0.680308 0.127993
0.632563 0.685069 0.126741
0.685954 0.687999 0.124468
0.745129 0.689158 0.122896
0.841489 0.677241 0.141207
1 0.58645 0.373617
1 0.489342 0.965682
1 0.515496 1
0.0391089 0.744991 0.0593881
0.104173 0.743435 0.0672618
0.169238 0.741878 0.0751507
0.234195 0.740337 0.0831159
0.298695 0.738918 0.0912795
0.361929 0.73785 0.0997635
0.42356 0.73727 0.108095
0.48426 0.737041 0.115618
0.544137 0.737163 0.122057
0.598962 0.738964 0.126833
0.647105 0.743084 0.128328
0.694484 0.747753 0.12668
0.748287 0.750561 0.124422
0.807263 0.751781 0.122789
0.885206 0.746426 0.130282
1 0.678233 0.27689
1 0.55758 0.779248
0.043534 0.806683 0.0543984
0.108598 0.805112 0.0622721
0.173663 0.803555 0.0701762
0.238621 0.802029 0.0781262
0.303227 0.80058 0.086244
0.366842 0.799405 0.094667
0.428931 0.798672 0.103151
0.489921 0.798321 0.111055
0.550408 0.798215 0.118044
0.608789 0.79884 0.12398
0.661509 0.801343 0.127901
0.708415 0.80592 0.128496
0.756497 0.810407 0.126619
0.810605 0.813123 0.124361
0.869413 0.814389 0.122683
0.936706 0.812772 0.12459
1 0.762448 0.219883
0.0479591 0.868376 0.0494087
0.113024 0.866804 0.0572976
0.178088 0.865248 0.0651865
0.243061 0.863706 0.0731365
0.307744 0.862242 0.0812238
0.371633 0.86099 0.0895857
0.434134 0.860121 0.0981155
0.495476 0.859648 0.10631
0.55613 0.859449 0.113741
0.616251 0.859495 0.120287
0.672724 0.860746 0.125643
0.723552 0.863905 0.128695
0.76994 0.868696 0.128618
0.81854 0.873045 0.126543
0.872938 0.875685 0.1243
0.931594 0.876997 0.122591
0.993957 0.877089 0.122103
0.0523842 0.930053 0.0444343
0.117464 0.928496 0.0523079
0.182513 0.92694 0.0602121
0.247486 0.925399 0.0681468
0.31223 0.923919 0.0762188
0.376333 0.922606 0.0845197
0.439231 0.92163 0.0930495
0.500908 0.921019 0.101427
0.561791 0.920714 0.109209
0.622278 0.920623 0.116197
0.681346 0.921019 0.122332
0.735988 0.922881 0.127047
0.785229 0.926589 0.129274
0.831464 0.931487 0.128664
0.88072 0.935653 0.126497
0.935271 0.938231 0.124239
0.99382 0.93959 0.122515
0.0568246 0.991745 0.0394446
0.121889 0.990188 0.0473182
0.186938 0.988632 0.0552224
0.251926 0.987091 0.0631571
0.316701 0.985595 0.0712139
0.380972 0.984237 0.0794537
0.444221 0.983154 0.087953
0.506233 0.982452 0.096437
0.567376 0.98204 0.104494
0.627985 0.981857 0.111879
0.688258 0.981857 0.118471
0.745785 0.982757 0.124178
0.798718 0.985199 0.128206
0.846738 0.989349 0.129702
0.89305 0.994263 0.128664
0.942901 0.998245 0.126436
0.997604 1 0.124193
0.173098 0 0.0149996
0 0.053254 0.0968795
0.183474 0 0.089128
0.177798 0.00173953 0.198871
0.238682 0.000946059 0.211414
0.308522 0 0.204623
0.373938 0 0.198444
0.437385 0 0.196612
0.50042 0 0.197055
0.563439 0 0.198428
0.626459 0 0.199847
0.689494 0 0.201328
0.752544 0 0.202884
0.81561 0 0.204456
0.878691 0 0.206104
0.941787 0 0.207797
1 0 0.209537
0 0.0981613 0.0690776
0.17789 0.0397955 0.0724804
0.0310979 0.0935683 0.1561
0.181018 0.0636454 0.195071
0.245182 0.0624704 0.201862
0.311788 0.0619516 0.194797
0.375097 0.0618296 0.193591
0.438117 0.0615702 0.194781
0.501152 0.061265 0.196231
0.564202 0.0609445 0.197742
0.627268 0.0606088 0.199344
0.690364 0.0602731 0.201038
0.753475 0.0599069 0.202777
0.816617 0.0595407 0.204593
0.879774 0.0591592 0.206455
0.942946 0.0587625 0.208362
