src/test/resources/xt3_flog_bt709.cube
#title:FLog_FGamut_to_FLog_BT.709
#FUJIFILM Corporation
#Gamma:F-Log to F-Log
#Gamut:F-Gamut to ITU-R BT.709
#Version:1.01
LUT_3D_SIZE 9
0.000000 0.000000 0.000000
0.182506 0.000000 0.000000
0.339558 0.000000 0.000000
0.496610 0.000000 0.000000
0.653662 0.000000 0.000000
0.810713 0.000000 0.000000
0.967765 0.000000 0.000000
1.000000 0.000000 0.000000
1.000000 0.000000 0.000000
0.000000 0.137963 0.000000
0.132219 0.125848 0.000000
0.312421 0.103532 0.000000
0.478297 0.062529 0.000000
0.640010 0.003512 0.000000
0.799925 0.000000 0.000000
0.958904 0.000000 0.000000
1.000000 0.000000 0.000000
1.000000 0.000000 0.000000
0.000000 0.270191 0.000000
0.011571 0.263281 0.000000
0.261246 0.251325 0.000000
0.445902 0.231683 0.000000
0.616410 0.201923 0.000000
0.781479 0.157135 0.000000
0.943844 0.083041 0.000000
1.000000 0.000000 0.000000
1.000000 0.000000 0.000000
0.000000 0.402419 0.000000
0.000000 0.397692 0.000000
0.156594 0.389643 0.000000
0.390272 0.376801 0.000000
0.577714 0.358323 0.000000
0.751832 0.333019 0.000000
0.919895 0.299014 0.000000
1.000000 0.252929 0.000000
1.000000 0.187330 0.000000
0.000000 0.534646 0.000000
0.000000 0.531103 0.000000
0.000000 0.525109 0.000000
0.297395 0.515650 0.000000
0.519299 0.502277 0.000000
0.708651 0.484451 0.000000
0.885617 0.461468 0.000000
1.000000 0.432334 0.000000
1.000000 0.395576 0.000000
0.000000 0.666874 0.000000
0.000000 0.664067 0.000000
0.000000 0.659332 0.000000
0.105628 0.651901 0.000000
0.432043 0.641481 0.000000
0.648325 0.627753 0.000000
0.839070 0.610346 0.000000
1.000000 0.588789 0.000000
1.000000 0.562486 0.000000
0.000000 0.799102 0.000000
0.000000 0.796792 0.000000
0.000000 0.792905 0.000000
0.000000 0.786821 0.000000
0.290861 0.778328 0.000000
0.564398 0.767210 0.000000
0.777352 0.753230 0.000000
0.969158 0.736112 0.000000
1.000000 0.715536 0.000000
0.000000 0.931330 0.000000
0.000000 0.929378 0.000000
0.000000 0.926096 0.000000
0.000000 0.920969 0.000000
0.000000 0.913832 0.000000
0.442601 0.904523 0.000000
0.695632 0.892876 0.000000
0.906378 0.878706 0.000000
1.000000 0.861811 0.000000
0.000000 1.000000 0.000000
0.000000 1.000000 0.000000
0.000000 1.000000 0.000000
0.000000 1.000000 0.000000
0.000000 1.000000 0.000000
0.231731 1.000000 0.000000
0.584659 1.000000 0.000000
0.826277 1.000000 0.000000
1.000000 1.000000 0.000000
0.000000 0.000000 0.136623
0.176874 0.000000 0.134893
0.336306 0.000000 0.131957
0.494377 0.000000 0.127302
0.651986 0.000000 0.120669
0.809384 0.000000 0.111723
0.966672 0.000000 0.099988
1.000000 0.000000 0.084719
1.000000 0.000000 0.065553
0.000000 0.137175 0.126831
0.125008 0.125008 0.125008
0.308902 0.102576 0.121911
0.475977 0.061430 0.116989
0.638296 0.002413 0.109953
0.798576 0.000000 0.100416
0.957799 0.000000 0.087804
1.000000 0.000000 0.071525
1.000000 0.000000 0.052316
0.000000 0.269733 0.109142
0.001984 0.262812 0.107126
0.257100 0.250836 0.103692
0.443412 0.231158 0.098209
0.614626 0.201335 0.090311
0.780096 0.156418 0.079487
0.942720 0.081952 0.065767
1.000000 0.000000 0.049340
1.000000 0.000000 0.030130
0.000000 0.402103 0.077325
0.000000 0.397373 0.074936
0.150238 0.389318 0.070933
0.387429 0.376465 0.064710
0.575805 0.357970 0.056109
0.750390 0.332641 0.045003
0.918738 0.298596 0.031284
1.000000 0.252443 0.014856
1.000000 0.186705 0.000000
0.000000 0.534410 0.029667
0.000000 0.530865 0.027278
0.000000 0.524868 0.023274
0.293711 0.515405 0.017051
0.517166 0.502025 0.008451
0.707113 0.484190 0.000000
0.884411 0.461192 0.000000
1.000000 0.432040 0.000000
1.000000 0.395256 0.000000
0.000000 0.666686 0.000000
0.000000 0.663878 0.000000
0.000000 0.659142 0.000000
0.097205 0.651709 0.000000
0.429473 0.641285 0.000000
0.646634 0.627553 0.000000
0.837790 0.610139 0.000000
1.000000 0.588575 0.000000
1.000000 0.562262 0.000000
0.000000 0.798947 0.000000
0.000000 0.796637 0.000000
0.000000 0.792749 0.000000
0.000000 0.786664 0.000000
0.287100 0.778169 0.000000
0.562441 0.767048 0.000000
0.775961 0.753065 0.000000
0.968066 0.735943 0.000000
1.000000 0.715362 0.000000
0.000000 0.931199 0.000000
0.000000 0.929247 0.000000
0.000000 0.925964 0.000000
0.000000 0.920837 0.000000
0.000000 0.913698 0.000000
0.440092 0.904388 0.000000
0.694064 0.892739 0.000000
0.905202 0.878567 0.000000
1.000000 0.861669 0.000000
0.000000 1.000000 0.000000
0.000000 1.000000 0.000000
0.000000 1.000000 0.000000
0.000000 1.000000 0.000000
0.000000 1.000000 0.000000
0.227122 1.000000 0.000000
0.582773 1.000000 0.000000
0.824976 1.000000 0.000000
1.000000 1.000000 0.000000
0.000000 0.000000 0.268104
0.167105 0.000000 0.267100
0.330787 0.000000 0.265410
0.490612 0.000000 0.262763
0.649166 0.000000 0.259066
0.807152 0.000000 0.254221
0.964835 0.000000 0.248123
1.000000 0.000000 0.240643
1.000000 0.000000 0.231634
0.000000 0.135846 0.262497
0.112241 0.123590 0.261474
0.302920 0.100961 0.259751
0.472063 0.059588 0.257053
0.635412 0.000571 0.253283
0.796311 0.000000 0.248339
0.955944 0.000000 0.242112
1.000000 0.000000 0.234467
1.000000 0.000000 0.225247
0.000000 0.268963 0.252854
0.000000 0.262025 0.251797
0.250015 0.250015 0.250015
0.439206 0.230277 0.247224
0.611625 0.200345 0.243321
0.777772 0.155211 0.238198
0.940832 0.080114 0.231736
1.000000 0.000000 0.223790
1.000000 0.000000 0.214184
0.000000 0.401575 0.237190
0.000000 0.396838 0.236072
0.139117 0.388772 0.234187
0.382619 0.375901 0.231232
0.572590 0.357378 0.227093
0.747966 0.332007 0.221652
0.916796 0.297894 0.214771
1.000000 0.251627 0.206281
1.000000 0.185653 0.195972
0.000000 0.534013 0.213948
0.000000 0.530465 0.212727
0.000000 0.524463 0.210667
0.287440 0.514992 0.207432
0.513571 0.501601 0.202891
0.704529 0.483750 0.196901
0.882385 0.460731 0.189291
1.000000 0.431548 0.179843
1.000000 0.394718 0.168273
0.000000 0.666372 0.180387
0.000000 0.663562 0.178984
0.000000 0.658823 0.176612
0.082002 0.651386 0.172875
0.425130 0.640957 0.167605
0.643790 0.627217 0.160606
0.835640 0.609793 0.151628
1.000000 0.588216 0.140333
1.000000 0.561885 0.126239
0.000000 0.798688 0.130498
0.000000 0.796377 0.128710
0.000000 0.792488 0.125676
0.000000 0.786400 0.120857
0.280696 0.777902 0.113977
0.559146 0.766777 0.104671
0.773623 0.752788 0.092403
0.966233 0.735660 0.076402
1.000000 0.715070 0.057192
0.000000 0.930980 0.047841
0.000000 0.929027 0.045452
0.000000 0.925744 0.041449
0.000000 0.920615 0.035226
0.000000 0.913474 0.026625
0.435854 0.904162 0.015519
0.691427 0.892509 0.001800
0.903228 0.878333 0.000000
1.000000 0.861430 0.000000
0.000000 1.000000 0.000000
0.000000 1.000000 0.000000
0.000000 1.000000 0.000000
0.000000 1.000000 0.000000
0.000000 1.000000 0.000000
0.219214 1.000000 0.000000
0.579599 1.000000 0.000000
0.822789 1.000000 0.000000
1.000000 1.000000 0.000000
0.000000 0.000000 0.399585
0.150988 0.000000 0.398895
0.322033 0.000000 0.397735
0.484700 0.000000 0.395926
0.644758 0.000000 0.393413
0.803668 0.000000 0.390144
0.961974 0.000000 0.386068
1.000000 0.000000 0.381133
1.000000 0.000000 0.375282
0.000000 0.133762 0.395745
0.090279 0.121363 0.395048
0.293399 0.098419 0.393878
0.465913 0.056726 0.392051
0.630902 0.000000 0.389514
0.792775 0.000000 0.386213
0.953052 0.000000 0.382096
1.000000 0.000000 0.377110
1.000000 0.000000 0.371198
0.000000 0.267763 0.389226
0.000000 0.260796 0.388518
0.238642 0.248735 0.387328
0.432588 0.228902 0.385472
0.606928 0.198799 0.382892
0.774144 0.153321 0.379535
0.937889 0.077252 0.375348
1.000000 0.000000 0.370274
1.000000 0.000000 0.364254
0.000000 0.400751 0.378878
0.000000 0.396005 0.378151
0.120448 0.387922 0.376929
0.375023 0.375023 0.375023
0.567555 0.356456 0.372373
0.744181 0.331018 0.368923
0.913767 0.296800 0.364619
1.000000 0.250353 0.359399
1.000000 0.184008 0.353202
0.000000 0.533395 0.364108
0.000000 0.529843 0.363353
0.000000 0.523834 0.362083
0.277438 0.514351 0.360101
0.507932 0.500943 0.357344
0.700491 0.483067 0.353754
0.879226 0.460013 0.349271
1.000000 0.430781 0.343830
1.000000 0.393881 0.337361
0.000000 0.665882 0.344139
0.000000 0.663070 0.343342
0.000000 0.658328 0.342001
0.057030 0.650884 0.339908
0.418291 0.640446 0.336995
0.639343 0.626695 0.333197
0.832286 0.609255 0.328449
1.000000 0.587657 0.322677
1.000000 0.561299 0.315803
0.000000 0.798285 0.317841
0.000000 0.795973 0.316982
0.000000 0.792081 0.315536
0.000000 0.785990 0.313278
0.270470 0.777487 0.310131
0.553985 0.766356 0.306023
0.769974 0.752359 0.300878
0.963376 0.735220 0.294608
1.000000 0.714616 0.287118
0.000000 0.930639 0.283407
0.000000 0.928686 0.282452
0.000000 0.925401 0.280845
0.000000 0.920270 0.278330
0.000000 0.913126 0.274820
0.429185 0.903810 0.270227
0.687307 0.892152 0.264455
0.900149 0.877970 0.257394
1.000000 0.861059 0.248913
0.000000 1.000000 0.237591
0.000000 1.000000 0.236475
0.000000 1.000000 0.234593
0.000000 1.000000 0.231642
0.000000 1.000000 0.227509
0.206421 1.000000 0.222077
0.574628 1.000000 0.215207
0.819378 1.000000 0.206732
1.000000 1.000000 0.196443
0.000000 0.000000 0.531066
0.126362 0.000000 0.530547
0.309555 0.000000 0.529677
0.476407 0.000000 0.528322
0.638613 0.000000 0.526443
0.798826 0.000000 0.524006
0.958003 0.000000 0.520980
1.000000 0.000000 0.517332
1.000000 0.000000 0.513033
0.000000 0.130844 0.528186
0.056041 0.118241 0.527665
0.279758 0.094840 0.526790
0.457276 0.052769 0.525427
0.624612 0.000000 0.523537
0.787860 0.000000 0.521087
0.949041 0.000000 0.518043
1.000000 0.000000 0.514374
1.000000 0.000000 0.510049
0.000000 0.266096 0.523324
0.000000 0.259090 0.522797
0.222106 0.246955 0.521914
0.423273 0.226989 0.520538
0.600374 0.196646 0.518630
0.769100 0.150680 0.516155
0.933805 0.073295 0.513081
1.000000 0.000000 0.509376
1.000000 0.000000 0.505007
0.000000 0.399611 0.515672
0.000000 0.394851 0.515138
0.090896 0.386744 0.514241
0.364273 0.373806 0.512844
0.560519 0.355178 0.510906
0.738915 0.329647 0.508393
0.909563 0.295282 0.505271
1.000000 0.248584 0.501506
1.000000 0.181716 0.497067
0.000000 0.532540 0.504902
0.000000 0.528982 0.504356
0.000000 0.522963 0.503439
0.263056 0.513463 0.502011
0.500031 0.500031 0.500031
0.694869 0.482120 0.497461
0.874839 0.459018 0.494269
1.000000 0.429719 0.490418
1.000000 0.392721 0.485876
0.000000 0.665204 0.490636
0.000000 0.662389 0.490074
0.000000 0.657642 0.489130
0.022511 0.650190 0.487660
0.408653 0.639740 0.485620
0.633142 0.625973 0.482972
0.827626 0.608511 0.479682
1.000000 0.586884 0.475711
1.000000 0.560488 0.471026
0.000000 0.797728 0.472410
0.000000 0.795414 0.471825
0.000000 0.791519 0.470845
0.000000 0.785423 0.469316
0.255740 0.776914 0.467195
0.546768 0.765773 0.464441
0.764900 0.751764 0.461017
0.959412 0.734610 0.456883
1.000000 0.713987 0.452001
0.000000 0.930168 0.449605
0.000000 0.928213 0.448991
0.000000 0.924927 0.447960
0.000000 0.919793 0.446352
0.000000 0.912645 0.444121
0.419795 0.903323 0.441223
0.681569 0.891659 0.437617
0.895875 0.877467 0.433260
1.000000 0.860546 0.428109
0.000000 1.000000 0.421375
0.000000 1.000000 0.420720
0.000000 1.000000 0.419620
0.000000 1.000000 0.417904
0.000000 1.000000 0.415522
0.187582 1.000000 0.412425
0.567683 1.000000 0.408567
0.814637 1.000000 0.403900
1.000000 1.000000 0.398375
0.000000 0.000000 0.662547
0.088616 0.000000 0.662136
0.292719 0.000000 0.661446
0.465477 0.000000 0.660372
0.630583 0.000000 0.658885
0.792526 0.000000 0.656960
0.952849 0.000000 0.654573
1.000000 0.000000 0.651702
1.000000 0.000000 0.648329
0.000000 0.127008 0.660265
0.011466 0.114125 0.659852
0.261200 0.090094 0.659160
0.445875 0.047661 0.658082
0.616390 0.000000 0.656589
0.781464 0.000000 0.654657
0.943832 0.000000 0.652261
1.000000 0.000000 0.649380
1.000000 0.000000 0.645994
0.000000 0.263930 0.656421
0.000000 0.256871 0.656006
0.199076 0.244641 0.655309
0.410935 0.224499 0.654225
0.591798 0.193838 0.652723
0.762533 0.147219 0.650778
0.928502 0.068187 0.648367
1.000000 0.000000 0.645467
1.000000 0.000000 0.642059
0.000000 0.398133 0.650399
0.000000 0.393356 0.649979
0.046641 0.385219 0.649276
0.349925 0.372229 0.648180
0.551296 0.353521 0.646664
0.732055 0.327868 0.644699
0.904103 0.293312 0.642264
1.000000 0.246283 0.639335
1.000000 0.178722 0.635892
0.000000 0.531433 0.641977
0.000000 0.527868 0.641551
0.000000 0.521836 0.640838
0.243382 0.512315 0.639728
0.489636 0.498850 0.638190
0.687537 0.480895 0.636198
0.869138 0.457731 0.633728
1.000000 0.428344 0.630757
1.000000 0.391218 0.627264
0.000000 0.664328 0.630925
0.000000 0.661509 0.630492
0.000000 0.656755 0.629765
0.000000 0.649293 0.628634
0.395868 0.638827 0.627068
0.625038 0.625038 0.625038
0.821566 0.607548 0.622522
1.000000 0.585884 0.619494
1.000000 0.559439 0.615934
0.000000 0.797007 0.616984
0.000000 0.794691 0.616541
0.000000 0.790792 0.615797
0.000000 0.784691 0.614639
0.235537 0.776172 0.613034
0.537300 0.765020 0.610955
0.758294 0.750996 0.608378
0.954266 0.733823 0.605276
1.000000 0.713175 0.601627
0.000000 0.929559 0.599842
0.000000 0.927603 0.599386
0.000000 0.924315 0.598619
0.000000 0.919177 0.597426
0.000000 0.912024 0.595773
0.407353 0.902694 0.593631
0.674082 0.891021 0.590973
0.890322 0.876818 0.587775
1.000000 0.859883 0.584012
0.000000 1.000000 0.579122
0.000000 1.000000 0.578648
0.000000 1.000000 0.577853
0.000000 1.000000 0.576615
0.000000 1.000000 0.574899
0.160751 1.000000 0.572675
0.558583 1.000000 0.569916
0.808471 1.000000 0.566594
1.000000 1.000000 0.562683
0.000000 0.000000 0.794028
0.033738 0.000000 0.793689
0.270615 0.000000 0.793122
0.451608 0.000000 0.792239
0.620513 0.000000 0.791016
0.784667 0.000000 0.789435
0.946438 0.000000 0.787476
1.000000 0.000000 0.785124
1.000000 0.000000 0.782364
0.000000 0.122156 0.792150
0.000000 0.108904 0.791811
0.236525 0.084023 0.791242
0.431376 0.041350 0.790356
0.606071 0.000000 0.789131
0.773483 0.000000 0.787545
0.937353 0.000000 0.785582
1.000000 0.000000 0.783224
1.000000 0.000000 0.780456
0.000000 0.261232 0.788993
0.000000 0.254108 0.788652
0.167215 0.241756 0.788080
0.395171 0.221391 0.787191
0.581021 0.190322 0.785960
0.754335 0.142859 0.784367
0.921904 0.061876 0.782395
1.000000 0.000000 0.780027
1.000000 0.000000 0.777247
0.000000 0.396300 0.784057
0.000000 0.391501 0.783714
0.000000 0.383326 0.783138
0.331387 0.370272 0.782243
0.539677 0.351464 0.781004
0.723484 0.325658 0.779400
0.897307 0.290860 0.777414
1.000000 0.243414 0.775029
1.000000 0.174967 0.772230
0.000000 0.530064 0.777180
0.000000 0.526489 0.776833
0.000000 0.520440 0.776252
0.216987 0.510892 0.775348
0.476476 0.497388 0.774097
0.678362 0.479378 0.772478
0.862039 0.456136 0.770473
1.000000 0.426639 0.768064
1.000000 0.389353 0.765238
0.000000 0.663244 0.768201
0.000000 0.660420 0.767850
0.000000 0.655658 0.767261
0.000000 0.648182 0.766346
0.379493 0.637697 0.765079
0.614872 0.623882 0.763439
0.814012 0.606357 0.761408
0.998198 0.584647 0.758968
1.000000 0.558140 0.756105
0.000000 0.796116 0.756949
0.000000 0.793797 0.756592
0.000000 0.789894 0.755994
0.000000 0.783785 0.755064
0.208310 0.775255 0.753776
0.525361 0.764089 0.752110
0.750046 0.750046 0.750046
0.947866 0.732848 0.747566
1.000000 0.712171 0.744655
0.000000 0.928807 0.743234
0.000000 0.926849 0.742870
0.000000 0.923557 0.742260
0.000000 0.918415 0.741311
0.000000 0.911255 0.739998
0.391448 0.901917 0.738298
0.664709 0.890232 0.736192
0.883409 0.876016 0.733662
1.000000 0.859063 0.730691
0.000000 1.000000 0.726842
0.000000 1.000000 0.726469
0.000000 1.000000 0.725845
0.000000 1.000000 0.724872
0.000000 1.000000 0.723527
0.122014 1.000000 0.721785
0.547124 1.000000 0.719627
0.800782 1.000000 0.717034
1.000000 1.000000 0.713989
0.000000 0.000000 0.925509
0.000000 0.000000 0.925223
0.241815 0.000000 0.924743
0.434418 0.000000 0.923996
0.608223 0.000000 0.922964
0.775143 0.000000 0.921628
0.938699 0.000000 0.919976
1.000000 0.000000 0.917993
1.000000 0.000000 0.915668
0.000000 0.116170 0.923922
0.000000 0.102433 0.923635
0.203699 0.076495 0.923154
0.413350 0.033793 0.922407
0.593467 0.000000 0.921372
0.763808 0.000000 0.920034
0.929530 0.000000 0.918378
1.000000 0.000000 0.916392
1.000000 0.000000 0.914062
0.000000 0.257969 0.921255
0.000000 0.250763 0.920968
0.121532 0.238261 0.920485
0.375447 0.217619 0.919735
0.567835 0.186042 0.918697
0.744391 0.137509 0.917355
0.913935 0.054319 0.915694
1.000000 0.000000 0.913701
1.000000 0.000000 0.911364
0.000000 0.394095 0.917094
0.000000 0.389269 0.916805
0.000000 0.381047 0.916320
0.307819 0.367915 0.915566
0.525415 0.348986 0.914523
0.713076 0.322994 0.913174
0.889095 0.287900 0.911504
1.000000 0.239941 0.909501
1.000000 0.170388 0.907152
0.000000 0.528419 0.911308
0.000000 0.524832 0.911016
0.000000 0.518763 0.910528
0.181324 0.509184 0.909769
0.460219 0.495632 0.908719
0.667199 0.477554 0.907360
0.853453 0.454219 0.905679
1.000000 0.424589 0.903661
1.000000 0.387109 0.901296
0.000000 0.661944 0.903775
0.000000 0.659114 0.903482
0.000000 0.654342 0.902989
0.000000 0.646850 0.902223
0.358939 0.636341 0.901163
0.602461 0.622494 0.899792
0.804865 0.604927 0.898095
0.990906 0.583161 0.896058
1.000000 0.556580 0.893671
0.000000 0.795048 0.894374
0.000000 0.792726 0.894077
0.000000 0.788817 0.893579
0.000000 0.782698 0.892804
0.171228 0.774156 0.891731
0.510689 0.762972 0.890344
0.740039 0.748906 0.888628
0.940140 0.731680 0.886567
1.000000 0.710966 0.884151
0.000000 0.927905 0.882972
0.000000 0.925945 0.882671
0.000000 0.922649 0.882166
0.000000 0.917502 0.881379
0.000000 0.910334 0.880292
0.371532 0.900985 0.878885
0.653298 0.889287 0.877143
0.875053 0.875053 0.875053
1.000000 0.858080 0.872602
0.000000 1.000000 0.869431
0.000000 1.000000 0.869124
0.000000 1.000000 0.868610
0.000000 1.000000 0.867811
0.000000 1.000000 0.866704
0.061801 1.000000 0.865273
0.533068 1.000000 0.863502
0.791469 1.000000 0.861375
1.000000 1.000000 0.858881
0.000000 0.000000 1.000000
0.000000 0.000000 1.000000
0.203825 0.000000 1.000000
0.413417 0.000000 1.000000
0.593513 0.000000 1.000000
0.763843 0.000000 1.000000
0.929559 0.000000 1.000000
1.000000 0.000000 1.000000
1.000000 0.000000 1.000000
0.000000 0.108902 1.000000
0.000000 0.094528 1.000000
0.158719 0.067659 1.000000
0.391237 0.024956 1.000000
0.578364 0.000000 1.000000
0.752324 0.000000 1.000000
0.920289 0.000000 1.000000
1.000000 0.000000 1.000000
1.000000 0.000000 1.000000
0.000000 0.254107 1.000000
0.000000 0.246802 1.000000
0.050017 0.234117 1.000000
0.351031 0.213138 1.000000
0.552000 0.180936 1.000000
0.732577 0.131059 1.000000
0.904518 0.045482 1.000000
1.000000 0.000000 1.000000
1.000000 0.000000 1.000000
0.000000 0.391501 1.000000
0.000000 0.386643 1.000000
0.000000 0.378366 1.000000
0.277949 0.365141 1.000000
0.508217 0.346067 1.000000
0.700695 0.319852 1.000000
0.879385 0.284403 1.000000
1.000000 0.235822 1.000000
1.000000 0.164909 1.000000
0.000000 0.526488 1.000000
0.000000 0.522888 1.000000
0.000000 0.516796 1.000000
0.130890 0.507178 1.000000
0.440445 0.493571 1.000000
0.653888 0.475413 1.000000
0.843292 0.451966 1.000000
1.000000 0.422179 1.000000
1.000000 0.384469 1.000000
0.000000 0.660420 1.000000
0.000000 0.657583 1.000000
0.000000 0.652799 1.000000
0.000000 0.645288 1.000000
0.333374 0.634752 1.000000
0.587600 0.620868 1.000000
0.794024 0.603251 1.000000
0.982302 0.581419 1.000000
1.000000 0.554751 1.000000
0.000000 0.793797 1.000000
0.000000 0.791471 1.000000
0.000000 0.787555 1.000000
0.000000 0.781426 1.000000
0.117861 0.772868 1.000000
0.492964 0.761664 1.000000
0.728150 0.747571 1.000000
0.931015 0.730311 1.000000
1.000000 0.709554 1.000000
0.000000 0.926849 1.000000
0.000000 0.924886 1.000000
0.000000 0.921587 1.000000
0.000000 0.916432 1.000000
0.000000 0.909255 1.000000
0.346853 0.899894 1.000000
0.639680 0.888180 1.000000
0.865170 0.873927 1.000000
1.000000 0.856929 1.000000
0.000000 1.000000 1.000000
0.000000 1.000000 1.000000
0.000000 1.000000 1.000000
0.000000 1.000000 1.000000
0.000000 1.000000 1.000000
0.000000 1.000000 1.000000
0.516131 1.000000 1.000000
0.780425 1.000000 1.000000
1.000000 1.000000 1.000000
