src/test/resources/xt3_flog_bt709.cube
#title:FLog_FGamut_to_FLog_BT.709
#FUJIFILM Corporation
#Gamma:F-Log to F-Log
#Gamut:F-Gamut to ITU-R BT.709
#Version:1.01
LUT_3D_SIZE 33
0.000000 0.000000 0.000000
0.051894 0.000000 0.000000
0.102274 0.000000 0.000000
0.143243 0.000000 0.000000
0.182506 0.000000 0.000000
0.221769 0.000000 0.000000
0.261032 0.000000 0.000000
0.300295 0.000000 0.000000
0.339558 0.000000 0.000000
0.378821 0.000000 0.000000
0.418084 0.000000 0.000000
0.457347 0.000000 0.000000
0.496610 0.000000 0.000000
0.535873 0.000000 0.000000
0.575136 0.000000 0.000000
0.614399 0.000000 0.000000
0.653662 0.000000 0.000000
0.692925 0.000000 0.000000
0.732188 0.000000 0.000000
0.771450 0.000000 0.000000
0.810713 0.000000 0.000000
0.849976 0.000000 0.000000
0.889239 0.000000 0.000000
0.928502 0.000000 0.000000
0.967765 0.000000 0.000000
1.000000 0.000000 0.000000
1.000000 0.000000 0.000000
1.000000 0.000000 0.000000
1.000000 0.000000 0.000000
1.000000 0.000000 0.000000
1.000000 0.000000 0.000000
1.000000 0.000000 0.000000
1.000000 0.000000 0.000000
0.000000 0.035405 0.000000
0.033529 0.031513 0.000000
0.085362 0.027620 0.000000
0.130001 0.023661 0.000000
0.171591 0.019014 0.000000
0.212520 0.013502 0.000000
0.253032 0.007101 0.000000
0.293265 0.000000 0.000000
0.333302 0.000000 0.000000
0.373195 0.000000 0.000000
0.412982 0.000000 0.000000
0.452685 0.000000 0.000000
0.492324 0.000000 0.000000
0.531911 0.000000 0.000000
0.571455 0.000000 0.000000
0.610966 0.000000 0.000000
0.650447 0.000000 0.000000
0.689905 0.000000 0.000000
0.729342 0.000000 0.000000
0.768761 0.000000 0.000000
0.808166 0.000000 0.000000
0.847557 0.000000 0.000000
0.886937 0.000000 0.000000
0.926308 0.000000 0.000000
0.965669 0.000000 0.000000
1.000000 0.000000 0.000000
1.000000 0.000000 0.000000
1.000000 0.000000 0.000000
1.000000 0.000000 0.000000
1.000000 0.000000 0.000000
1.000000 0.000000 0.000000
1.000000 0.000000 0.000000
1.000000 0.000000 0.000000
0.000000 0.070811 0.000000
0.015164 0.066918 0.000000
0.067057 0.063026 0.000000
0.115751 0.059067 0.000000
0.160111 0.054419 0.000000
0.202923 0.048908 0.000000
0.244804 0.042507 0.000000
0.286078 0.035193 0.000000
0.326933 0.026946 0.000000
0.367487 0.017745 0.000000
0.407816 0.007572 0.000000
0.447975 0.000000 0.000000
0.488000 0.000000 0.000000
0.527918 0.000000 0.000000
0.567750 0.000000 0.000000
0.607512 0.000000 0.000000
0.647216 0.000000 0.000000
0.686870 0.000000 0.000000
0.726484 0.000000 0.000000
0.766062 0.000000 0.000000
0.805609 0.000000 0.000000
0.845130 0.000000 0.000000
0.884629 0.000000 0.000000
0.924107 0.000000 0.000000
0.963568 0.000000 0.000000
1.000000 0.000000 0.000000
1.000000 0.000000 0.000000
1.000000 0.000000 0.000000
1.000000 0.000000 0.000000
1.000000 0.000000 0.000000
1.000000 0.000000 0.000000
1.000000 0.000000 0.000000
1.000000 0.000000 0.000000
0.000000 0.104906 0.000000
0.000000 0.101524 0.000000
0.048378 0.098070 0.000000
0.099962 0.094479 0.000000
0.147758 0.090158 0.000000
0.192763 0.084872 0.000000
0.236180 0.078519 0.000000
0.278595 0.071205 0.000000
0.320333 0.062958 0.000000
0.361591 0.053757 0.000000
0.402496 0.043584 0.000000
0.443132 0.032422 0.000000
0.483561 0.020255 0.000000
0.523825 0.007068 0.000000
0.563956 0.000000 0.000000
0.603978 0.000000 0.000000
0.643911 0.000000 0.000000
0.683770 0.000000 0.000000
0.723564 0.000000 0.000000
0.763305 0.000000 0.000000
0.803000 0.000000 0.000000
0.842654 0.000000 0.000000
0.882274 0.000000 0.000000
0.921863 0.000000 0.000000
0.961425 0.000000 0.000000
1.000000 0.000000 0.000000
1.000000 0.000000 0.000000
1.000000 0.000000 0.000000
1.000000 0.000000 0.000000
1.000000 0.000000 0.000000
1.000000 0.000000 0.000000
1.000000 0.000000 0.000000
1.000000 0.000000 0.000000
0.000000 0.137963 0.000000
0.000000 0.135155 0.000000
0.026450 0.132306 0.000000
0.079233 0.129363 0.000000
0.132219 0.125848 0.000000
0.180256 0.121591 0.000000
0.225698 0.116518 0.000000
0.269574 0.110537 0.000000
0.312421 0.103532 0.000000
0.354551 0.095350 0.000000
0.396161 0.085785 0.000000
0.437380 0.074696 0.000000
0.478297 0.062529 0.000000
0.518977 0.049341 0.000000
0.559467 0.035118 0.000000
0.599802 0.019846 0.000000
0.640010 0.003512 0.000000
0.680110 0.000000 0.000000
0.720121 0.000000 0.000000
0.760056 0.000000 0.000000
0.799925 0.000000 0.000000
0.839737 0.000000 0.000000
0.879501 0.000000 0.000000
0.919221 0.000000 0.000000
0.958904 0.000000 0.000000
0.998553 0.000000 0.000000
1.000000 0.000000 0.000000
1.000000 0.000000 0.000000
1.000000 0.000000 0.000000
1.000000 0.000000 0.000000
1.000000 0.000000 0.000000
1.000000 0.000000 0.000000
1.000000 0.000000 0.000000
0.000000 0.171020 0.000000
0.000000 0.168631 0.000000
0.000446 0.166215 0.000000
0.053229 0.163730 0.000000
0.111955 0.160775 0.000000
0.164476 0.157218 0.000000
0.212705 0.153009 0.000000
0.258513 0.148092 0.000000
0.302789 0.142400 0.000000
0.346025 0.135851 0.000000
0.388518 0.128340 0.000000
0.430459 0.119734 0.000000
0.471978 0.109855 0.000000
0.513168 0.098460 0.000000
0.554095 0.085195 0.000000
0.594810 0.069978 0.000000
0.635349 0.053644 0.000000
0.675743 0.036234 0.000000
0.716015 0.017738 0.000000
0.756183 0.000000 0.000000
0.796262 0.000000 0.000000
0.836264 0.000000 0.000000
0.876200 0.000000 0.000000
0.916077 0.000000 0.000000
0.955904 0.000000 0.000000
0.995685 0.000000 0.000000
1.000000 0.000000 0.000000
1.000000 0.000000 0.000000
1.000000 0.000000 0.000000
1.000000 0.000000 0.000000
1.000000 0.000000 0.000000
1.000000 0.000000 0.000000
1.000000 0.000000 0.000000
0.000000 0.204077 0.000000
0.000000 0.202004 0.000000
0.000000 0.199914 0.000000
0.023029 0.197769 0.000000
0.084940 0.195228 0.000000
0.144562 0.192178 0.000000
0.196732 0.188587 0.000000
0.245118 0.184415 0.000000
0.291237 0.179619 0.000000
0.335866 0.174146 0.000000
0.379453 0.167936 0.000000
0.422279 0.160912 0.000000
0.464530 0.152981 0.000000
0.506335 0.144026 0.000000
0.547788 0.133894 0.000000
0.588956 0.122377 0.000000
0.629891 0.109190 0.000000
0.670634 0.093908 0.000000
0.711214 0.075960 0.000000
0.751657 0.056364 0.000000
0.791984 0.035658 0.000000
0.832210 0.013830 0.000000
0.872348 0.000000 0.000000
0.912411 0.000000 0.000000
0.952406 0.000000 0.000000
0.992343 0.000000 0.000000
1.000000 0.000000 0.000000
1.000000 0.000000 0.000000
1.000000 0.000000 0.000000
1.000000 0.000000 0.000000
1.000000 0.000000 0.000000
1.000000 0.000000 0.000000
1.000000 0.000000 0.000000
0.000000 0.237134 0.000000
0.000000 0.235309 0.000000
0.000000 0.233472 0.000000
0.000000 0.231590 0.000000
0.050483 0.229365 0.000000
0.119048 0.226701 0.000000
0.177085 0.223574 0.000000
0.228989 0.219956 0.000000
0.277505 0.215814 0.000000
0.323892 0.211113 0.000000
0.368832 0.205813 0.000000
0.412737 0.199864 0.000000
0.455870 0.193211 0.000000
0.498412 0.185784 0.000000
0.540488 0.177500 0.000000
0.582192 0.168253 0.000000
0.623593 0.157909 0.000000
0.664744 0.146294 0.000000
0.705686 0.133168 0.000000
0.746451 0.118195 0.000000
0.787066 0.100864 0.000000
0.827551 0.080353 0.000000
0.867925 0.057394 0.000000
0.908202 0.033292 0.000000
0.948393 0.008038 0.000000
0.988509 0.000000 0.000000
1.000000 0.000000 0.000000
1.000000 0.000000 0.000000
1.000000 0.000000 0.000000
1.000000 0.000000 0.000000
1.000000 0.000000 0.000000
1.000000 0.000000 0.000000
1.000000 0.000000 0.000000
0.000000 0.270191 0.000000
0.000000 0.268564 0.000000
0.000000 0.266929 0.000000
0.000000 0.265257 0.000000
0.011571 0.263281 0.000000
0.084999 0.260921 0.000000
0.152651 0.258157 0.000000
0.209552 0.254966 0.000000
0.261246 0.251325 0.000000
0.309871 0.247207 0.000000
0.356491 0.242584 0.000000
0.401709 0.237422 0.000000
0.445902 0.231683 0.000000
0.489319 0.225321 0.000000
0.532132 0.218285 0.000000
0.574465 0.210511 0.000000
0.616410 0.201923 0.000000
0.658035 0.192428 0.000000
0.699395 0.181908 0.000000
0.740532 0.170210 0.000000
0.781479 0.157135 0.000000
0.822263 0.142405 0.000000
0.862907 0.125624 0.000000
0.903429 0.106180 0.000000
0.943844 0.083041 0.000000
0.984165 0.056639 0.000000
1.000000 0.029052 0.000000
1.000000 0.000285 0.000000
1.000000 0.000000 0.000000
1.000000 0.000000 0.000000
1.000000 0.000000 0.000000
1.000000 0.000000 0.000000
1.000000 0.000000 0.000000
0.000000 0.303248 0.000000
0.000000 0.301784 0.000000
0.000000 0.300313 0.000000
0.000000 0.298811 0.000000
0.000000 0.297038 0.000000
0.041639 0.294923 0.000000
0.121422 0.292449 0.000000
0.185933 0.289599 0.000000
0.241978 0.286354 0.000000
0.293502 0.282694 0.000000
0.342222 0.278597 0.000000
0.389045 0.274038 0.000000
0.434512 0.268990 0.000000
0.478969 0.263421 0.000000
0.522648 0.257295 0.000000
0.565715 0.250571 0.000000
0.608290 0.243200 0.000000
0.650464 0.235124 0.000000
0.692305 0.226273 0.000000
0.733868 0.216565 0.000000
0.775195 0.205893 0.000000
0.816320 0.194126 0.000000
0.857271 0.181092 0.000000
0.898072 0.166561 0.000000
0.938741 0.150214 0.000000
0.979295 0.131581 0.000000
1.000000 0.109923 0.000000
1.000000 0.083948 0.000000
1.000000 0.054019 0.000000
1.000000 0.022866 0.000000
1.000000 0.000000 0.000000
1.000000 0.000000 0.000000
1.000000 0.000000 0.000000
0.000000 0.336305 0.000000
0.000000 0.334976 0.000000
0.000000 0.333642 0.000000
0.000000 0.332280 0.000000
0.000000 0.330674 0.000000
0.000000 0.328761 0.000000
0.078980 0.326525 0.000000
0.156669 0.323953 0.000000
0.218997 0.321030 0.000000
0.274375 0.317739 0.000000
0.325759 0.314063 0.000000
0.374559 0.309983 0.000000
0.421563 0.305478 0.000000
0.467255 0.300525 0.000000
0.511952 0.295098 0.000000
0.555874 0.289167 0.000000
0.599179 0.282698 0.000000
0.641983 0.275653 0.000000
0.684375 0.267987 0.000000
0.726424 0.259645 0.000000
0.768182 0.250565 0.000000
0.809693 0.240671 0.000000
0.850992 0.229868 0.000000
0.892108 0.218042 0.000000
0.933063 0.205043 0.000000
0.973878 0.190676 0.000000
1.000000 0.174680 0.000000
1.000000 0.156683 0.000000
1.000000 0.136131 0.000000
1.000000 0.112125 0.000000
1.000000 0.083022 0.000000
1.000000 0.049461 0.000000
1.000000 0.014733 0.000000
0.000000 0.369362 0.000000
0.000000 0.368147 0.000000
0.000000 0.366928 0.000000
0.000000 0.365684 0.000000
0.000000 0.364219 0.000000
0.000000 0.362474 0.000000
0.026318 0.360437 0.000000
0.118937 0.358097 0.000000
0.191188 0.355440 0.000000
0.251907 0.352453 0.000000
0.306749 0.349122 0.000000
0.358015 0.345432 0.000000
0.406887 0.341367 0.000000
0.454052 0.336908 0.000000
0.499946 0.332036 0.000000
0.544863 0.326729 0.000000
0.589011 0.320961 0.000000
0.632539 0.314706 0.000000
0.675560 0.307930 0.000000
0.718160 0.300599 0.000000
0.760407 0.292669 0.000000
0.802354 0.284092 0.000000
0.844044 0.274809 0.000000
0.885513 0.264751 0.000000
0.926788 0.253835 0.000000
0.967896 0.241957 0.000000
1.000000 0.228988 0.000000
1.000000 0.214760 0.000000
1.000000 0.199055 0.000000
1.000000 0.181571 0.000000
1.000000 0.161877 0.000000
1.000000 0.139313 0.000000
1.000000 0.112836 0.000000
0.000000 0.402419 0.000000
0.000000 0.401301 0.000000
0.000000 0.400180 0.000000
0.000000 0.399037 0.000000
0.000000 0.397692 0.000000
0.000000 0.396090 0.000000
0.000000 0.394221 0.000000
0.066416 0.392076 0.000000
0.156594 0.389643 0.000000
0.225222 0.386911 0.000000
0.284703 0.383868 0.000000
0.339105 0.380503 0.000000
0.390272 0.376801 0.000000
0.439206 0.372748 0.000000
0.486515 0.368330 0.000000
0.532593 0.363527 0.000000
0.577714 0.358323 0.000000
0.622071 0.352694 0.000000
0.665808 0.346619 0.000000
0.709034 0.340071 0.000000
0.751832 0.333019 0.000000
0.794269 0.325431 0.000000
0.836398 0.317265 0.000000
0.878262 0.308477 0.000000
0.919895 0.299014 0.000000
0.961327 0.288812 0.000000
1.000000 0.277796 0.000000
1.000000 0.265873 0.000000
1.000000 0.252929 0.000000
1.000000 0.238820 0.000000
1.000000 0.223359 0.000000
1.000000 0.206298 0.000000
1.000000 0.187330 0.000000
0.000000 0.435476 0.000000
0.000000 0.434442 0.000000
0.000000 0.433406 0.000000
0.000000 0.432350 0.000000
0.000000 0.431106 0.000000
0.000000 0.429627 0.000000
0.000000 0.427903 0.000000
0.004195 0.425925 0.000000
0.111093 0.423683 0.000000
0.192881 0.421168 0.000000
0.258914 0.418370 0.000000
0.317414 0.415278 0.000000
0.371448 0.411882 0.000000
0.422529 0.408170 0.000000
0.471518 0.404129 0.000000
0.518956 0.399745 0.000000
0.565204 0.395003 0.000000
0.610512 0.389887 0.000000
0.655065 0.384379 0.000000
0.698998 0.378459 0.000000
0.742418 0.372104 0.000000
0.785404 0.365290 0.000000
0.828024 0.357988 0.000000
0.870327 0.350166 0.000000
0.912358 0.341788 0.000000
0.954152 0.332811 0.000000
0.995737 0.323187 0.000000
1.000000 0.312856 0.000000
1.000000 0.301750 0.000000
1.000000 0.289788 0.000000
1.000000 0.276866 0.000000
1.000000 0.262860 0.000000
1.000000 0.247639 0.000000
0.000000 0.468533 0.000000
0.000000 0.467572 0.000000
0.000000 0.466610 0.000000
0.000000 0.465629 0.000000
0.000000 0.464475 0.000000
0.000000 0.463102 0.000000
0.000000 0.461503 0.000000
0.000000 0.459669 0.000000
0.047043 0.457593 0.000000
0.152199 0.455264 0.000000
0.228279 0.452676 0.000000
0.292355 0.449819 0.000000
0.350057 0.446684 0.000000
0.403779 0.443261 0.000000
0.454785 0.439539 0.000000
0.503824 0.435508 0.000000
0.551380 0.431154 0.000000
0.597782 0.426465 0.000000
0.643264 0.421427 0.000000
0.687999 0.416024 0.000000
0.732117 0.410238 0.000000
0.775720 0.404051 0.000000
0.818887 0.397441 0.000000
0.861680 0.390384 0.000000
0.904152 0.382854 0.000000
0.946345 0.374821 0.000000
0.988294 0.366250 0.000000
1.000000 0.357102 0.000000
1.000000 0.347332 0.000000
1.000000 0.336885 0.000000
1.000000 0.325701 0.000000
1.000000 0.313703 0.000000
1.000000 0.300827 0.000000
0.000000 0.501590 0.000000
0.000000 0.500693 0.000000
0.000000 0.499796 0.000000
0.000000 0.498881 0.000000
0.000000 0.497805 0.000000
0.000000 0.496526 0.000000
0.000000 0.495036 0.000000
0.000000 0.493328 0.000000
0.000000 0.491395 0.000000
0.096823 0.489229 0.000000
0.190908 0.486823 0.000000
0.263060 0.484169 0.000000
0.325607 0.481260 0.000000
0.382647 0.478086 0.000000
0.436102 0.474638 0.000000
0.487042 0.470908 0.000000
0.536126 0.466885 0.000000
0.583788 0.462559 0.000000
0.630332 0.457917 0.000000
0.675975 0.452948 0.000000
0.720881 0.447636 0.000000
0.765174 0.441968 0.000000
0.808951 0.435927 0.000000
0.852288 0.429494 0.000000
0.895249 0.422650 0.000000
0.937883 0.415371 0.000000
0.980232 0.407632 0.000000
1.000000 0.399406 0.000000
1.000000 0.390660 0.000000
1.000000 0.381356 0.000000
1.000000 0.371454 0.000000
1.000000 0.360903 0.000000
1.000000 0.349670 0.000000
0.000000 0.534646 0.000000
0.000000 0.533807 0.000000
0.000000 0.532967 0.000000
0.000000 0.532110 0.000000
0.000000 0.531103 0.000000
0.000000 0.529906 0.000000
0.000000 0.528513 0.000000
0.000000 0.526916 0.000000
0.000000 0.525109 0.000000
0.020585 0.523086 0.000000
0.142990 0.520840 0.000000
0.228127 0.518363 0.000000
0.297395 0.515650 0.000000
0.358713 0.512693 0.000000
0.415194 0.509484 0.000000
0.468417 0.506015 0.000000
0.519299 0.502277 0.000000
0.568423 0.498262 0.000000
0.616183 0.493960 0.000000
0.662857 0.489360 0.000000
0.708651 0.484451 0.000000
0.753717 0.479222 0.000000
0.798174 0.473658 0.000000
0.842116 0.467745 0.000000
0.885617 0.461468 0.000000
0.928738 0.454808 0.000000
0.971528 0.447747 0.000000
1.000000 0.440264 0.000000
1.000000 0.432334 0.000000
1.000000 0.423931 0.000000
1.000000 0.415024 0.000000
1.000000 0.405579 0.000000
1.000000 0.395576 0.000000
0.000000 0.567703 0.000000
0.000000 0.566915 0.000000
0.000000 0.566125 0.000000
0.000000 0.565321 0.000000
0.000000 0.564375 0.000000
0.000000 0.563251 0.000000
0.000000 0.561943 0.000000
0.000000 0.560444 0.000000
0.000000 0.558749 0.000000
0.000000 0.556852 0.000000
0.074067 0.554747 0.000000
0.185013 0.552427 0.000000
0.264339 0.549887 0.000000
0.331394 0.547120 0.000000
0.391701 0.544120 0.000000
0.447706 0.540879 0.000000
0.500725 0.537390 0.000000
0.551555 0.533646 0.000000
0.600716 0.529638 0.000000
0.648566 0.525358 0.000000
0.695362 0.520796 0.000000
0.741295 0.515941 0.000000
0.786511 0.510784 0.000000
0.831124 0.505313 0.000000
0.875223 0.499514 0.000000
0.918879 0.493374 0.000000
0.962154 0.486878 0.000000
1.000000 0.480009 0.000000
1.000000 0.472748 0.000000
1.000000 0.465076 0.000000
1.000000 0.456970 0.000000
1.000000 0.448403 0.000000
1.000000 0.439367 0.000000
0.000000 0.600760 0.000000
0.000000 0.600017 0.000000
0.000000 0.599273 0.000000
0.000000 0.598515 0.000000
0.000000 0.597624 0.000000
0.000000 0.596565 0.000000
0.000000 0.595333 0.000000
0.000000 0.593923 0.000000
0.000000 0.592328 0.000000
0.000000 0.590543 0.000000
0.000000 0.588563 0.000000
0.128049 0.586382 0.000000
0.224626 0.583996 0.000000
0.299833 0.581397 0.000000
0.365134 0.578582 0.000000
0.424597 0.575542 0.000000
0.480189 0.572272 0.000000
0.533028 0.568766 0.000000
0.583812 0.565015 0.000000
0.633006 0.561014 0.000000
0.680938 0.556753 0.000000
0.727847 0.552224 0.000000
0.773911 0.547419 0.000000
0.819269 0.542328 0.000000
0.864028 0.536939 0.000000
0.908276 0.531242 0.000000
0.952082 0.525225 0.000000
0.995503 0.518874 0.000000
1.000000 0.512174 0.000000
1.000000 0.505110 0.000000
1.000000 0.497664 0.000000
1.000000 0.489817 0.000000
1.000000 0.481563 0.000000
0.000000 0.633817 0.000000
0.000000 0.633115 0.000000
0.000000 0.632412 0.000000
0.000000 0.631695 0.000000
0.000000 0.630853 0.000000
0.000000 0.629854 0.000000
0.000000 0.628690 0.000000
0.000000 0.627358 0.000000
0.000000 0.625853 0.000000
0.000000 0.624168 0.000000
0.000000 0.622301 0.000000
0.043148 0.620245 0.000000
0.174732 0.617995 0.000000
0.262673 0.615547 0.000000
0.334796 0.612895 0.000000
0.398671 0.610035 0.000000
0.457415 0.606959 0.000000
0.512648 0.603663 0.000000
0.565327 0.600140 0.000000
0.616068 0.596384 0.000000
0.665293 0.592389 0.000000
0.713301 0.588146 0.000000
0.760315 0.583648 0.000000
0.806502 0.578887 0.000000
0.851993 0.573854 0.000000
0.896892 0.568540 0.000000
0.941282 0.562935 0.000000
0.985230 0.557028 0.000000
1.000000 0.550806 0.000000
1.000000 0.544258 0.000000
1.000000 0.537368 0.000000
1.000000 0.530123 0.000000
1.000000 0.522520 0.000000
0.000000 0.666874 0.000000
0.000000 0.666209 0.000000
0.000000 0.665542 0.000000
0.000000 0.664864 0.000000
0.000000 0.664067 0.000000
0.000000 0.663120 0.000000
0.000000 0.662018 0.000000
0.000000 0.660757 0.000000
0.000000 0.659332 0.000000
0.000000 0.657739 0.000000
0.000000 0.655972 0.000000
0.000000 0.654028 0.000000
0.105628 0.651901 0.000000
0.217515 0.649588 0.000000
0.299631 0.647083 0.000000
0.369351 0.644383 0.000000
0.432043 0.641481 0.000000
0.490170 0.638372 0.000000
0.545086 0.635052 0.000000
0.597622 0.631514 0.000000
0.648325 0.627753 0.000000
0.697578 0.623763 0.000000
0.745657 0.619536 0.000000
0.792768 0.615066 0.000000
0.839070 0.610346 0.000000
0.884687 0.605366 0.000000
0.929718 0.600120 0.000000
0.974243 0.594598 0.000000
1.000000 0.588789 0.000000
1.000000 0.582685 0.000000
1.000000 0.576272 0.000000
1.000000 0.569539 0.000000
1.000000 0.562486 0.000000
0.000000 0.699931 0.000000
0.000000 0.699299 0.000000
0.000000 0.698666 0.000000
0.000000 0.698022 0.000000
0.000000 0.697265 0.000000
0.000000 0.696367 0.000000
0.000000 0.695321 0.000000
0.000000 0.694125 0.000000
0.000000 0.692773 0.000000
0.000000 0.691261 0.000000
0.000000 0.689586 0.000000
0.000000 0.687742 0.000000
0.004678 0.685727 0.000000
0.159271 0.683536 0.000000
0.257907 0.681163 0.000000
0.335795 0.678607 0.000000
0.403586 0.675861 0.000000
0.465281 0.672920 0.000000
0.522872 0.669782 0.000000
0.577507 0.666439 0.000000
0.629913 0.662888 0.000000
0.680582 0.659122 0.000000
0.729861 0.655137 0.000000
0.778005 0.650925 0.000000
0.825208 0.646480 0.000000
0.871618 0.641797 0.000000
0.917354 0.636866 0.000000
0.962511 0.631682 0.000000
1.000000 0.626234 0.000000
1.000000 0.620516 0.000000
1.000000 0.614517 0.000000
1.000000 0.608226 0.000000
1.000000 0.601647 0.000000
0.000000 0.732988 0.000000
0.000000 0.732387 0.000000
0.000000 0.731785 0.000000
0.000000 0.731172 0.000000
0.000000 0.730452 0.000000
0.000000 0.729597 0.000000
0.000000 0.728602 0.000000
0.000000 0.727464 0.000000
0.000000 0.726179 0.000000
0.000000 0.724742 0.000000
0.000000 0.723149 0.000000
0.000000 0.721398 0.000000
0.000000 0.719483 0.000000
0.072169 0.717402 0.000000
0.206366 0.715150 0.000000
0.296694 0.712723 0.000000
0.371358 0.710118 0.000000
0.437566 0.707330 0.000000
0.498408 0.704355 0.000000
0.555528 0.701188 0.000000
0.609912 0.697825 0.000000
0.662201 0.694261 0.000000
0.712838 0.690492 0.000000
0.762141 0.686510 0.000000
0.810347 0.682312 0.000000
0.857635 0.677891 0.000000
0.904148 0.673241 0.000000
0.949997 0.668355 0.000000
0.995272 0.663227 0.000000
1.000000 0.657848 0.000000
1.000000 0.652212 0.000000
1.000000 0.646308 0.000000
1.000000 0.640141 0.000000
0.000000 0.766045 0.000000
0.000000 0.765472 0.000000
0.000000 0.764898 0.000000
0.000000 0.764313 0.000000
0.000000 0.763627 0.000000
0.000000 0.762812 0.000000
0.000000 0.761864 0.000000
0.000000 0.760780 0.000000
0.000000 0.759555 0.000000
0.000000 0.758186 0.000000
0.000000 0.756669 0.000000
0.000000 0.755002 0.000000
0.000000 0.753179 0.000000
0.000000 0.751198 0.000000
0.137228 0.749055 0.000000
0.249788 0.746747 0.000000
0.334334 0.744270 0.000000
0.406453 0.741619 0.000000
0.471337 0.738792 0.000000
0.531442 0.735785 0.000000
0.588146 0.732592 0.000000
0.642304 0.729210 0.000000
0.694487 0.725635 0.000000
0.745095 0.721861 0.000000
0.794420 0.717883 0.000000
0.842683 0.713698 0.000000
0.890052 0.709298 0.000000
0.936660 0.704679 0.000000
0.982616 0.699835 0.000000
1.000000 0.694758 0.000000
1.000000 0.689442 0.000000
1.000000 0.683880 0.000000
1.000000 0.678076 0.000000
0.000000 0.799102 0.000000
0.000000 0.798554 0.000000
0.000000 0.798006 0.000000
0.000000 0.797448 0.000000
0.000000 0.796792 0.000000
0.000000 0.796014 0.000000
0.000000 0.795109 0.000000
0.000000 0.794074 0.000000
0.000000 0.792905 0.000000
0.000000 0.791598 0.000000
0.000000 0.790151 0.000000
0.000000 0.788560 0.000000
0.000000 0.786821 0.000000
0.000000 0.784932 0.000000
0.028921 0.782889 0.000000
0.190489 0.780689 0.000000
0.290861 0.778328 0.000000
0.371121 0.775803 0.000000
0.441175 0.773111 0.000000
0.504936 0.770248 0.000000
0.564398 0.767210 0.000000
0.620731 0.763993 0.000000
0.674685 0.760594 0.000000
0.726771 0.757007 0.000000
0.777352 0.753230 0.000000
0.826698 0.749256 0.000000
0.875013 0.745082 0.000000
0.922458 0.740703 0.000000
0.969158 0.736112 0.000000
1.000000 0.731306 0.000000
1.000000 0.726276 0.000000
1.000000 0.721018 0.000000
1.000000 0.715536 0.000000
0.000000 0.832159 0.000000
0.000000 0.831635 0.000000
0.000000 0.831110 0.000000
0.000000 0.830577 0.000000
0.000000 0.829949 0.000000
0.000000 0.829205 0.000000
0.000000 0.828340 0.000000
0.000000 0.827350 0.000000
0.000000 0.826232 0.000000
0.000000 0.824982 0.000000
0.000000 0.823599 0.000000
0.000000 0.822078 0.000000
0.000000 0.820416 0.000000
0.000000 0.818611 0.000000
0.000000 0.816660 0.000000
0.105825 0.814558 0.000000
0.237922 0.812305 0.000000
0.330309 0.809895 0.000000
0.407251 0.807326 0.000000
0.475597 0.804595 0.000000
0.538391 0.801697 0.000000
0.597286 0.798631 0.000000
0.653287 0.795392 0.000000
0.707056 0.791976 0.000000
0.759052 0.788380 0.000000
0.809608 0.784599 0.000000
0.858974 0.780629 0.000000
0.907339 0.776466 0.000000
0.954856 0.772105 0.000000
1.000000 0.767541 0.000000
1.000000 0.762769 0.000000
1.000000 0.757784 0.000000
1.000000 0.752589 0.000000
0.000000 0.865216 0.000000
0.000000 0.864714 0.000000
0.000000 0.864211 0.000000
0.000000 0.863700 0.000000
0.000000 0.863099 0.000000
0.000000 0.862386 0.000000
0.000000 0.861557 0.000000
0.000000 0.860608 0.000000
0.000000 0.859537 0.000000
0.000000 0.858341 0.000000
0.000000 0.857016 0.000000
0.000000 0.855560 0.000000
0.000000 0.853970 0.000000
0.000000 0.852242 0.000000
0.000000 0.850375 0.000000
0.000000 0.848365 0.000000
0.168735 0.846209 0.000000
0.281889 0.843905 0.000000
0.368571 0.841449 0.000000
0.442864 0.838838 0.000000
0.509770 0.836071 0.000000
0.571725 0.833142 0.000000
0.630116 0.830049 0.000000
0.685818 0.826789 0.000000
0.739418 0.823358 0.000000
