src/test/resources/xt3_flog_bt709.cube
#title:FLog_FGamut_to_FLog_BT.709
#FUJIFILM Corporation
#Gamma:F-Log to F-Log
#Gamut:F-Gamut to ITU-R BT.709
#Version:1.01
LUT_3D_SIZE 5
0.000000 0.000000 0.000000
0.339558 0.000000 0.000000
0.653662 0.000000 0.000000
0.967765 0.000000 0.000000
1.000000 0.000000 0.000000
0.000000 0.270191 0.000000
0.261246 0.251325 0.000000
0.616410 0.201923 0.000000
0.943844 0.083041 0.000000
1.000000 0.000000 0.000000
0.000000 0.534646 0.000000
0.000000 0.525109 0.000000
0.519299 0.502277 0.000000
0.885617 0.461468 0.000000
1.000000 0.395576 0.000000
0.000000 0.799102 0.000000
0.000000 0.792905 0.000000
0.290861 0.778328 0.000000
0.777352 0.753230 0.000000
1.000000 0.715536 0.000000
0.000000 1.000000 0.000000
0.000000 1.000000 0.000000
0.000000 1.000000 0.000000
0.584659 1.000000 0.000000
1.000000 1.000000 0.000000
0.000000 0.000000 0.268104
0.330787 0.000000 0.265410
0.649166 0.000000 0.259066
0.964835 0.000000 0.248123
1.000000 0.000000 0.231634
0.000000 0.268963 0.252854
0.250015 0.250015 0.250015
0.611625 0.200345 0.243321
0.940832 0.080114 0.231736
1.000000 0.000000 0.214184
0.000000 0.534013 0.213948
0.000000 0.524463 0.210667
0.513571 0.501601 0.202891
0.882385 0.460731 0.189291
1.000000 0.394718 0.168273
0.000000 0.798688 0.130498
0.000000 0.792488 0.125676
0.280696 0.777902 0.113977
0.773623 0.752788 0.092403
1.000000 0.715070 0.057192
0.000000 1.000000 0.000000
0.000000 1.000000 0.000000
0.000000 1.000000 0.000000
0.579599 1.000000 0.000000
1.000000 1.000000 0.000000
0.000000 0.000000 0.531066
0.309555 0.000000 0.529677
0.638613 0.000000 0.526443
0.958003 0.000000 0.520980
1.000000 0.000000 0.513033
0.000000 0.266096 0.523324
0.222106 0.246955 0.521914
0.600374 0.196646 0.518630
0.933805 0.073295 0.513081
1.000000 0.000000 0.505007
0.000000 0.532540 0.504902
0.000000 0.522963 0.503439
0.500031 0.500031 0.500031
0.874839 0.459018 0.494269
1.000000 0.392721 0.485876
0.000000 0.797728 0.472410
0.000000 0.791519 0.470845
0.255740 0.776914 0.467195
0.764900 0.751764 0.461017
1.000000 0.713987 0.452001
0.000000 1.000000 0.421375
0.000000 1.000000 0.419620
0.000000 1.000000 0.415522
0.567683 1.000000 0.408567
1.000000 1.000000 0.398375
0.000000 0.000000 0.794028
0.270615 0.000000 0.793122
0.620513 0.000000 0.791016
0.946438 0.000000 0.787476
1.000000 0.000000 0.782364
0.000000 0.261232 0.788993
0.167215 0.241756 0.788080
0.581021 0.190322 0.785960
0.921904 0.061876 0.782395
1.000000 0.000000 0.777247
0.000000 0.530064 0.777180
0.000000 0.520440 0.776252
0.476476 0.497388 0.774097
0.862039 0.456136 0.770473
1.000000 0.389353 0.765238
0.000000 0.796116 0.756949
0.000000 0.789894 0.755994
0.208310 0.775255 0.753776
0.750046 0.750046 0.750046
1.000000 0.712171 0.744655
0.000000 1.000000 0.726842
0.000000 1.000000 0.725845
0.000000 1.000000 0.723527
0.547124 1.000000 0.719627
1.000000 1.000000 0.713989
0.000000 0.000000 1.000000
0.203825 0.000000 1.000000
0.593513 0.000000 1.000000
0.929559 0.000000 1.000000
1.000000 0.000000 1.000000
0.000000 0.254107 1.000000
0.050017 0.234117 1.000000
0.552000 0.180936 1.000000
0.904518 0.045482 1.000000
1.000000 0.000000 1.000000
0.000000 0.526488 1.000000
0.000000 0.516796 1.000000
0.440445 0.493571 1.000000
0.843292 0.451966 1.000000
1.000000 0.384469 1.000000
0.000000 0.793797 1.000000
0.000000 0.787555 1.000000
0.117861 0.772868 1.000000
0.728150 0.747571 1.000000
1.000000 0.709554 1.000000
0.000000 1.000000 1.000000
0.000000 1.000000 1.000000
0.000000 1.000000 1.000000
0.516131 1.000000 1.000000
1.000000 1.000000 1.000000
